; %_N_B020_MPF
; Machine
;   vendor: DMG MORI
;   model: CMX 600 V
;   description: DMG MORI CMX 600 V
; T1 D=12.7 CR=0 - ZMIN=49.41411 - flat end mill
; T3 D=6.35 CR=3.175 - ZMIN=48.52348 - ball end mill
; T5 D=3 CR=0 - ZMIN=24.45469 - flat end mill
; T6 D=4 CR=0 TAPER=140deg - ZMIN=24.45469 - drill
N10 G54
N11 G17 G710 G90 G94
N12 WORKPIECE(,"",,"BOX",112,68,-68,,38,26,-38,0)
N13 G64
N14 G0 SUPA Z0 D0

MSG ("Face5")
N15 T1
N16 M6
N17 D1
N18 T3
N19 S7639 M3
N20 G17 G90 G94
N21 G54
N22 G0 X44.16763 Y2.78547
N23 G0 Z83
N24 M8
N25 G0 Z73
N26 G1 Z68.27 F381
N27 G17
N28 G3 X42.89763 Z67 I-1.27 K0
N29 G1 X-42.89307 Y2.78547 F1164.2
N30 G2 X-46.91636 Y6.80875 CR=4.02328
N31 G2 X-42.89307 Y10.83203 CR=4.02328
N32 G1 X42.89763 Z67
N33 G3 X46.92091 Y14.85532 CR=4.02328
N34 G3 X42.89763 Y18.8786 CR=4.02328
N35 G1 X42.89307 Z67
N36 G1 X-42.89763
N37 G3 X-44.16763 Z68.27 I0 K1.27 F762
N38 G0 Y18.8786 Z83

MSG ("Adaptive5")
N39 G0 X-34.99441 Y8.83136
N40 G0 Z83
N41 G0 Z73
N42 G0 Z71.25
N43 G1 Z49.41411 F381
N44 G1 X-34.95691 F1164.2
N45 G1 X-34.96441 Y8.8681
N46 G1 X-34.99768 Y8.8854
N47 G1 X-35.03386 Y8.87554
N48 G1 X-35.05613 Y8.84538
N49 G1 X-35.05677 Y8.80788
N50 G1 X-35.04079 Y8.77396
N51 G1 X-35.01364 Y8.74809
N52 G1 X-34.97894 Y8.73387
N53 G1 X-34.94144 Y8.73339
N54 G1 X-34.90642 Y8.7468
N55 G1 X-34.87675 Y8.76973
N56 G1 X-34.85462 Y8.8
N57 G1 X-34.82935 Y8.87062
N58 G1 X-34.83886 Y8.94501
N59 G1 X-34.87869 Y9.00856
N60 G1 X-34.93864 Y9.05363
N61 G1 X-35.01043 Y9.07533
N62 G1 X-35.08541 Y9.07356
N63 G1 X-35.15636 Y9.04927
N64 G1 X-35.27903 Y8.96294
N65 G1 X-35.34459 Y8.82803
N66 G1 X-35.34773 Y8.67806
N67 G1 X-35.29363 Y8.53816
N68 G1 X-35.19357 Y8.4264
N69 G1 X-35.06245 Y8.35355
N70 G1 X-34.91531 Y8.32441
N71 G1 X-34.7659 Y8.33772
N72 G1 X-34.62563 Y8.39086
N73 G1 X-34.50315 Y8.47745
N74 G1 X-34.4062 Y8.59192
N75 G1 X-34.33804 Y8.72553
N76 G1 X-34.3017 Y8.87107
N77 G1 X-34.29786 Y9.02102
N78 G1 X-34.32495 Y9.16855
N79 G1 X-34.38142 Y9.30751
N80 G1 X-34.46371 Y9.43293
N81 G1 X-34.56808 Y9.54066
N82 G1 X-34.69061 Y9.62719
N83 G1 X-34.82544 Y9.69293
N84 G1 X-34.96931 Y9.73538
N85 G1 X-35.11832 Y9.75252
N86 G1 X-35.26822 Y9.74707
N87 G1 X-35.41549 Y9.71857
N88 G1 X-35.55647 Y9.66734
N89 G1 X-35.68889 Y9.59688
N90 G1 X-35.80973 Y9.508
N91 G1 X-35.91668 Y9.40283
N92 G1 X-36.00877 Y9.28443
N93 G1 X-36.08381 Y9.15454
N94 G1 X-36.14132 Y9.01601
N95 G1 X-36.18092 Y8.87133
N96 G1 X-36.20135 Y8.72273
N97 G1 X-36.20401 Y8.57275
N98 G1 X-36.18854 Y8.42355
N99 G1 X-36.15516 Y8.27731
N100 G1 X-36.10554 Y8.13576
N101 G1 X-36.03981 Y8.00093
N102 G1 X-35.95966 Y7.87414
N103 G1 X-35.86618 Y7.75682
N104 G1 X-35.76029 Y7.65058
N105 G1 X-35.64408 Y7.55574
N106 G1 X-35.51851 Y7.4737
N107 G1 X-35.38526 Y7.40481
N108 G1 X-35.24581 Y7.34955
N109 G1 X-34.94792 Y7.29771
N110 G1 X-34.64572 Y7.30762
N111 G1 X-34.35187 Y7.37886
N112 G1 X-34.07869 Y7.50845
N113 G1 X-33.83761 Y7.69095
N114 G1 X-33.63875 Y7.91872
N115 G1 X-33.49044 Y8.18221
N116 G1 X-33.39889 Y8.47038
N117 G1 X-33.36794 Y8.77116
N118 G1 Y9.21032
N119 G1 X-33.37838 Y9.4188
N120 G1 X-33.39788 Y9.56752
N121 G1 X-33.43057 Y9.71392
N122 G1 X-33.47617 Y9.85682
N123 G1 X-33.53385 Y9.99528
N124 G1 X-33.60311 Y10.12834
N125 G1 X-33.68296 Y10.25532
N126 G1 X-33.77512 Y10.3783
N127 G1 X-33.87658 Y10.49318
N128 G1 X-33.99054 Y10.60304
N129 G1 X-34.11324 Y10.70362
N130 G1 X-34.41824 Y10.86926
N131 G1 X-34.75183 Y10.96511
N132 G1 X-35.09824 Y10.98663
N133 G1 X-35.44113 Y10.93283
N134 G1 X-35.7643 Y10.80623
N135 G1 X-36.05249 Y10.61282
N136 G1 X-36.29211 Y10.36172
N137 G1 X-36.47183 Y10.06479
N138 G1 X-36.58317 Y9.73606
N139 G1 X-36.62088 Y9.39103
N140 G1 X-36.62029 Y8.07342
N141 G1 X-36.61544 Y7.69445
N142 G1 X-36.60603 Y7.54475
N143 G1 X-36.58106 Y7.39684
N144 G1 X-36.54116 Y7.25225
N145 G1 X-36.48891 Y7.11164
N146 G1 X-36.42448 Y6.97619
N147 G1 X-36.34519 Y6.84041
N148 G1 X-36.25784 Y6.71512
N149 G1 X-36.15451 Y6.58973
N150 G1 X-36.03438 Y6.46574
N151 G1 X-35.76188 Y6.27254
N152 G1 X-35.45532 Y6.13989
N153 G1 X-35.12796 Y6.07351
N154 G1 X-34.79394 Y6.07628
N155 G1 X-34.46771 Y6.14807
N156 G1 X-34.16339 Y6.28578
N157 G1 X-33.89413 Y6.48346
N158 G1 X-33.67159 Y6.73256
N159 G1 X-33.50537 Y7.02229
N160 G1 X-33.40268 Y7.34015
N161 G1 X-33.36794 Y7.67237
N162 G1 Y8.77116
N163 G1 X-33.37533 Y8.8706 F381
N164 G1 X-33.3905 Y8.96916
N165 G1 X-33.39258 Y8.99074
N166 G1 X-33.3905 Y9.01232
N167 G1 X-33.37533 Y9.11088
N168 G1 X-33.36794 Y9.21032
N169 G1 Y10.64945 F1164.2
N170 G1 X-33.37544 Y10.79927
N171 G1 X-33.40389 Y10.94654
N172 G1 X-33.44735 Y11.09011
N173 G1 X-33.505 Y11.22859
N174 G1 X-33.57418 Y11.36168
N175 G1 X-33.65469 Y11.48825
N176 G1 X-33.7535 Y11.61806
N177 G1 X-33.85924 Y11.73599
N178 G1 X-33.9757 Y11.84656
N179 G1 X-34.11758 Y11.96109
N180 G1 X-34.42339 Y12.12433
N181 G1 X-34.75718 Y12.21791
N182 G1 X-35.10328 Y12.23745
N183 G1 X-35.44548 Y12.18203
N184 G1 X-35.76773 Y12.05425
N185 G1 X-36.05491 Y11.86009
N186 G1 X-36.29357 Y11.60867
N187 G1 X-36.47251 Y11.31177
N188 G1 X-36.58335 Y10.98331
N189 G1 X-36.62088 Y10.63869
N190 G1 Y9.39103
N191 G1 X-36.61349 Y9.29158 F762
N192 G1 X-36.59832 Y9.19302
N193 G2 X-36.55388 Y8.89566 CR=3.44642
N194 G1 X-36.54693 Y8.76715 Z49.41411
N195 G1 X-36.54641 Y8.61076
N196 G1 X-36.54596 Y8.4752 F1164.2
N197 G1 X-36.54546 Y8.32658 F381
N198 G1 X-36.55155 Y8.19802
N199 G2 X-36.59401 Y7.90037 CR=3.44642
N200 G1 X-36.60893 Y7.79785 Z49.41411
N201 G1 X-36.61544 Y7.69445
N202 G1 X-36.6106 Y7.31549 F1164.2
N203 G1 X-36.60301 Y6.93652
N204 G1 X-36.59067 Y6.55755
N205 G1 X-36.57409 Y6.36807
N206 G1 X-36.5326 Y6.17858
N207 G1 X-36.45879 Y5.9891
N208 G1 X-36.35656 Y5.79962
N209 G1 X-36.30049 Y5.69983
N210 G1 X-36.20522 Y5.56024
N211 G1 X-36.07777 Y5.42065
N212 G1 X-35.92038 Y5.29374
N213 G1 X-35.73033 Y5.16391
N214 G1 X-35.54027 Y5.05971
N215 G1 X-35.49735 Y5.04168
N216 G1 X-35.32875 Y4.98701
N217 G1 X-35.16016 Y4.95448
N218 G1 X-34.78005 Y4.90441
N219 G1 X-34.59 Y4.90152
N220 G1 X-34.39994 Y4.92483
N221 G1 X-34.23321 Y4.97018
N222 G1 X-34.06648 Y5.04168
N223 G1 X-34.01983 Y5.06701
N224 G1 X-33.82978 Y5.1989
N225 G1 X-33.72457 Y5.29617
N226 G1 X-33.63972 Y5.39344
N227 G1 X-33.61891 Y5.42065
N228 G1 X-33.55486 Y5.51539
N229 G1 X-33.50227 Y5.61013
N230 G1 X-33.4258 Y5.79962
N231 G1 X-33.38216 Y5.9891
N232 G1 X-33.36794 Y6.17858
N233 G1 Y7.67237
N234 G1 X-33.37533 Y7.77181 F762
N235 G1 X-33.3905 Y7.87037
N236 G2 X-33.47726 Y8.44963 CR=6.76351
N237 G1 X-33.47772 Y8.45393 Z49.41411 F1164.2
N238 G1 X-33.48467 Y8.58668
N239 G1 Y9.73514
N240 G1 X-33.47772 Y9.86789
N241 G1 X-33.47726 Y9.87219
N242 G2 X-33.3905 Y10.45145 CR=6.76351 F381
N243 G1 X-33.37533 Y10.55001 Z49.41411
N244 G1 X-33.36794 Y10.64945
N245 G1 Y11.8631 F1164.2
N246 G1 X-33.37544 Y12.01291
N247 G1 X-33.39997 Y12.16089
N248 G1 X-33.43948 Y12.30559
N249 G1 X-33.49389 Y12.44538
N250 G1 X-33.56021 Y12.57992
N251 G1 X-33.63792 Y12.70823
N252 G1 X-33.73346 Y12.83868
N253 G1 X-33.83777 Y12.95943
N254 G1 X-33.94909 Y13.06911
N255 G1 X-33.98029 Y13.09525
N256 G1 X-34.25446 Y13.28063
N257 G1 X-34.56079 Y13.40593
N258 G1 X-34.88629 Y13.46586
N259 G1 X-35.21716 Y13.45787
N260 G1 X-35.53938 Y13.38229
N261 G1 X-35.83931 Y13.24234
N262 G1 X-36.10421 Y13.04395
N263 G1 X-36.32289 Y12.79551
N264 G1 X-36.48606 Y12.50756
N265 G1 X-36.58681 Y12.19231
N266 G1 X-36.62088 Y11.8631
N267 G1 Y10.63869
N268 G3 X-36.24343 Y9.98542 CR=0.80303 F762
N269 G1 X-36.17329 Y9.94639 Z49.41411 F1164.2
N270 G1 X-36.0996 Y9.91455
N271 G1 X-36.02309 Y9.89022
N272 G3 X-33.53869 Y11.10109 CR=2.11671
N273 G3 X-33.36794 Y11.8631 CR=2.11671 F381
N274 G1 Y13.11464 Z49.41411 F1164.2
N275 G1 X-33.37544 Y13.26445
N276 G1 X-33.40181 Y13.41211
N277 G1 X-33.44361 Y13.55617
N278 G1 X-33.49896 Y13.69559
N279 G1 X-33.56752 Y13.829
N280 G1 X-33.64672 Y13.95639
N281 G1 X-33.73616 Y14.07681
N282 G1 X-33.84729 Y14.20317
N283 G1 X-33.96521 Y14.31732
N284 G1 X-34.09314 Y14.42264
N285 G1 X-34.40022 Y14.59019
N286 G1 X-34.73626 Y14.68739
N287 G1 X-35.08536 Y14.70964
N288 G1 X-35.43102 Y14.65588
N289 G1 X-35.75689 Y14.52866
N290 G1 X-36.04753 Y14.33399
N291 G1 X-36.28922 Y14.08109
N292 G1 X-36.47051 Y13.78192
N293 G1 X-36.58284 Y13.45063
N294 G1 X-36.62088 Y13.10289
N295 G1 Y11.8631
N296 G3 X-36.24334 Y11.2099 CR=0.8028 F762
N297 G3 X-36.0071 Y11.11077 CR=0.8028 F1164.2
N298 G3 X-33.53728 Y12.35223 CR=2.13829
N299 G3 X-33.36794 Y13.11464 CR=2.1383 F381
N300 G1 Y14.34534 Z49.41411 F1164.2
N301 G1 X-33.37544 Y14.49515
N302 G1 X-33.40074 Y14.643
N303 G1 X-33.44126 Y14.78742
N304 G1 X-33.4966 Y14.92684
N305 G1 X-33.56371 Y15.06099
N306 G1 X-33.64231 Y15.18875
N307 G1 X-33.73892 Y15.31902
N308 G1 X-33.84292 Y15.43797
N309 G1 X-33.95562 Y15.54769
N310 G1 X-34.09509 Y15.66318
N311 G1 X-34.40142 Y15.8314
N312 G1 X-34.7369 Y15.92932
N313 G1 X-35.08562 Y15.9523
N314 G1 X-35.43105 Y15.89923
N315 G1 X-35.7568 Y15.77264
N316 G1 X-36.04742 Y15.57854
N317 G1 X-36.28913 Y15.32613
N318 G1 X-36.47047 Y15.02737
N319 G1 X-36.58282 Y14.69644
N320 G1 X-36.62088 Y14.34904
N321 G1 Y13.10289
N322 G3 X-36.24337 Y12.44967 CR=0.80287 F762
N323 G3 X-36.01244 Y12.35181 CR=0.80288 F1164.2
N324 G3 X-33.53775 Y13.58306 CR=2.13101
N325 G3 X-33.36794 Y14.34534 CR=2.13101 F381
N326 G1 Y15.57603 Z49.41411 F1164.2
N327 G1 X-33.37544 Y15.72584
N328 G1 X-33.39958 Y15.87389
N329 G1 X-33.43894 Y16.01863
N330 G1 X-33.49326 Y16.15845
N331 G1 X-33.55943 Y16.29307
N332 G1 X-33.63712 Y16.42138
N333 G1 X-33.73272 Y16.55201
N334 G1 X-33.83609 Y16.67177
N335 G1 X-33.94744 Y16.78157
N336 G1 X-34.08565 Y16.89752
N337 G1 X-34.23016 Y17.00018
N338 G1 X-34.53234 Y17.13948
N339 G1 X-34.85699 Y17.21247
N340 G1 X-35.18971 Y17.2159
N341 G1 X-35.51579 Y17.14963
N342 G1 X-35.82079 Y17.01659
N343 G1 X-36.09119 Y16.82268
N344 G1 X-36.31503 Y16.57647
N345 G1 X-36.48239 Y16.28888
N346 G1 X-36.58587 Y15.97263
N347 G1 X-36.62088 Y15.64173
N348 G1 Y14.34904
N349 G3 X-36.24342 Y13.69578 CR=0.80301 F762
N350 G1 X-36.17281 Y13.65652 Z49.41411 F1164.2
N351 G1 X-36.09861 Y13.62455
N352 G1 X-36.02156 Y13.60019
N353 G3 X-33.53855 Y14.81399 CR=2.11875
N354 G3 X-33.36794 Y15.57603 CR=2.11875 F381
N355 G1 Y16.78968 Z49.41411 F1164.2
N356 G1 X-33.37591 Y16.94881
N357 G1 X-33.39541 Y17.09753
N358 G1 X-33.43086 Y17.24329
N359 G1 X-33.48025 Y17.38492
N360 G1 X-33.54334 Y17.52101
N361 G1 X-33.61745 Y17.65142
N362 G1 X-33.7022 Y17.77518
N363 G1 X-33.80735 Y17.90403
N364 G1 X-33.9201 Y18.02153
N365 G1 X-34.0412 Y18.12897
N366 G1 X-34.31831 Y18.29682
N367 G1 X-34.6234 Y18.40582
N368 G1 X-34.94413 Y18.45156
N369 G1 X-35.26753 Y18.4322
N370 G1 X-35.58052 Y18.34852
N371 G1 X-35.87042 Y18.2039
N372 G1 X-36.12553 Y18.00419
N373 G1 X-36.33551 Y17.75747
N374 G1 X-36.49187 Y17.47373
N375 G1 X-36.5883 Y17.16443
N376 G1 X-36.62088 Y16.84209
N377 G1 Y15.64173
N378 G3 X-36.24367 Y14.98827 CR=0.8037 F762
N379 G1 X-36.15885 Y14.94209 Z49.41411 F1164.2
N380 G1 X-36.06911 Y14.90642
N381 G3 X-33.54263 Y16.02883 CR=2.05842
N382 G3 X-33.36794 Y16.78968 CR=2.05842 F381
N383 G1 Y18.04122 Z49.41411 F1164.2
N384 G1 X-33.37544 Y18.19103
N385 G1 X-33.39501 Y18.33975
N386 G1 X-33.43134 Y18.48528
N387 G1 X-33.4818 Y18.62654
N388 G1 X-33.54523 Y18.76246
N389 G1 X-33.62177 Y18.89334
N390 G1 X-33.70765 Y19.01632
N391 G1 X-33.80526 Y19.13431
N392 G1 X-33.92382 Y19.25621
N393 G1 X-34.04794 Y19.36483
N394 G1 X-34.35277 Y19.54292
N395 G1 X-34.68908 Y19.65031
N396 G1 X-35.04071 Y19.68184
N397 G1 X-35.39075 Y19.63599
N398 G1 X-35.7224 Y19.51497
N399 G1 X-36.01971 Y19.32459
N400 G1 X-36.2684 Y19.07401
N401 G1 X-36.4565 Y18.77526
N402 G1 X-36.57499 Y18.4427
N403 G1 X-36.61817 Y18.09231
N404 G1 X-36.62029 Y17.92658
N405 G1 X-36.62088 Y16.84209
N406 G3 X-36.24351 Y16.18876 CR=0.80326 F762
N407 G1 X-36.14404 Y16.13597 Z49.41411 F1164.2
N408 G1 X-36.03816 Y16.0976
N409 G3 X-35.4641 Y16.01738 CR=2.09702
N410 G1 X-35.46369 Z49.41411
N411 G3 X-33.54 Y17.27959 CR=2.09702
N412 G3 X-33.36794 Y18.04122 CR=2.09702 F381
N413 G1 Y19.27191 Z49.41411 F1164.2
N414 G1 X-33.37544 Y19.42173
N415 G1 X-33.39552 Y19.57038
N416 G1 X-33.43145 Y19.71601
N417 G1 X-33.48276 Y19.85696
N418 G1 X-33.54625 Y19.99286
N419 G1 X-33.6217 Y20.12251
N420 G1 X-33.71367 Y20.25282
N421 G1 X-33.81298 Y20.37193
N422 G1 X-33.82383 Y20.383
N423 G1 X-34.08809 Y20.60177
N424 G1 X-34.39182 Y20.76128
N425 G1 X-34.72194 Y20.85464
N426 G1 X-35.06422 Y20.87783
N427 G1 X-35.40392 Y20.82986
N428 G1 X-35.72639 Y20.71279
N429 G1 X-36.01775 Y20.53167
N430 G1 X-36.26544 Y20.2943
N431 G1 X-36.45879 Y20.0109
N432 G3 X-36.5491 Y19.70333 CR=3.14846 F762
N433 G3 X-36.59103 Y19.24213 CR=1.61318
N434 G3 X-34.89406 Y17.71733 CR=1.61318 F1164.2
N435 G3 X-33.58161 Y18.52418 CR=1.61318
N436 G3 X-33.36794 Y19.27191 CR=1.61318 F381
N437 G1 Y19.82142 Z49.41411 F1164.2
N438 G1 X-33.38216 Y20.0109
N439 G1 X-33.4258 Y20.20038
N440 G1 X-33.50227 Y20.38987
N441 G1 X-33.55486 Y20.48461
N442 G1 X-33.61891 Y20.57935
N443 G1 X-33.63972 Y20.60657
N444 G1 X-33.72457 Y20.70383
N445 G1 X-33.82978 Y20.8011
N446 G1 X-34.01983 Y20.93299
N447 G1 X-34.06648 Y20.95832
N448 G1 X-34.23321 Y21.02982
N449 G1 X-34.39994 Y21.07517
N450 G1 X-34.59 Y21.09848
N451 G1 X-34.78005 Y21.09559
N452 G1 X-35.16016 Y21.04552
N453 G1 X-35.32875 Y21.01299
N454 G1 X-35.49735 Y20.95832
N455 G1 X-35.54027 Y20.94029
N456 G1 X-35.73033 Y20.83609
N457 G1 X-35.92038 Y20.70626
N458 G1 X-36.07777 Y20.57935
N459 G1 X-36.20522 Y20.43976
N460 G1 X-36.30049 Y20.30017
N461 G1 X-36.35656 Y20.20038
N462 G1 X-36.45879 Y20.0109
N463 G1 X-36.5326 Y19.82142
N464 G1 X-36.57409 Y19.63193
N465 G1 X-36.59067 Y19.44245
N466 G1 X-36.60301 Y19.06348
N467 G1 X-36.6106 Y18.68451
N468 G1 X-36.61817 Y18.09231
N469 G1 X-36.60223 Y17.98494 Z49.42176 F762
N470 G1 X-36.5866 Y17.87965 Z49.44435
N471 G1 X-36.57158 Y17.77846 Z49.48142
N472 G1 X-36.53617 Y17.6942 Z49.52954
N473 G1 X-36.50351 Y17.61649 Z49.58923
N474 G1 X-36.47417 Y17.54667 Z49.65946
N475 G1 X-36.44865 Y17.48595 Z49.73902
N476 G1 X-36.41978 Y17.44206 Z49.82213
N477 G1 X-36.39685 Y17.40719 Z49.91116
N478 G1 X-36.3802 Y17.38189 Z50.00469
N479 G1 X-36.37011 Y17.36655 Z50.10129
N480 G1 X-36.36673 Y17.36141 Z50.19941
N481 G0 Z73
N482 G0 X34.99441 Y8.83136
N483 G0 Z71.25
N484 G1 Z49.41411 F381
N485 G1 X35.03191 F1164.2
N486 G1 X35.02441 Y8.8681
N487 G1 X34.99114 Y8.8854
N488 G1 X34.95496 Y8.87554
N489 G1 X34.93269 Y8.84538
N490 G1 X34.93205 Y8.80788
N491 G1 X34.94803 Y8.77396
N492 G1 X34.97518 Y8.74809
N493 G1 X35.00988 Y8.73387
N494 G1 X35.04738 Y8.73339
N495 G1 X35.0824 Y8.7468
N496 G1 X35.11207 Y8.76973
N497 G1 X35.1342 Y8.8
N498 G1 X35.15947 Y8.87062
N499 G1 X35.14997 Y8.94501
N500 G1 X35.11013 Y9.00856
N501 G1 X35.05019 Y9.05363
N502 G1 X34.97839 Y9.07533
N503 G1 X34.90342 Y9.07356
N504 G1 X34.83245 Y9.04927
N505 G1 X34.70979 Y8.96294
N506 G1 X34.64423 Y8.82803
N507 G1 X34.64109 Y8.67806
N508 G1 X34.69519 Y8.53816
N509 G1 X34.79525 Y8.4264
N510 G1 X34.92637 Y8.35355
N511 G1 X35.07351 Y8.32441
N512 G1 X35.22292 Y8.33772
N513 G1 X35.36319 Y8.39086
N514 G1 X35.48567 Y8.47745
N515 G1 X35.58261 Y8.59192
N516 G1 X35.65078 Y8.72553
N517 G1 X35.68712 Y8.87107
N518 G1 X35.69096 Y9.02102
N519 G1 X35.66387 Y9.16855
N520 G1 X35.6074 Y9.30751
N521 G1 X35.52511 Y9.43293
N522 G1 X35.42074 Y9.54066
N523 G1 X35.29821 Y9.62719
N524 G1 X35.16338 Y9.69293
N525 G1 X35.01952 Y9.73538
N526 G1 X34.8705 Y9.75252
N527 G1 X34.7206 Y9.74707
N528 G1 X34.57333 Y9.71857
N529 G1 X34.43235 Y9.66734
N530 G1 X34.29993 Y9.59688
N531 G1 X34.17909 Y9.508
N532 G1 X34.07214 Y9.40283
N533 G1 X33.98005 Y9.28443
N534 G1 X33.90502 Y9.15454
N535 G1 X33.8475 Y9.01601
N536 G1 X33.8079 Y8.87133
N537 G1 X33.78747 Y8.72273
N538 G1 X33.78481 Y8.57275
N539 G1 X33.80028 Y8.42355
N540 G1 X33.83366 Y8.27731
N541 G1 X33.88328 Y8.13576
N542 G1 X33.94901 Y8.00093
N543 G1 X34.02916 Y7.87414
N544 G1 X34.12264 Y7.75682
N545 G1 X34.22853 Y7.65058
N546 G1 X34.34474 Y7.55574
N547 G1 X34.47031 Y7.4737
N548 G1 X34.60356 Y7.40481
N549 G1 X34.74301 Y7.34955
N550 G1 X35.0409 Y7.29771
N551 G1 X35.3431 Y7.30762
N552 G1 X35.63695 Y7.37886
N553 G1 X35.91014 Y7.50845
N554 G1 X36.15121 Y7.69095
N555 G1 X36.35007 Y7.91872
N556 G1 X36.49838 Y8.18221
N557 G1 X36.58993 Y8.47038
N558 G1 X36.62088 Y8.77116
N559 G1 Y9.21032
N560 G1 X36.61044 Y9.4188
N561 G1 X36.59094 Y9.56752
N562 G1 X36.55825 Y9.71392
N563 G1 X36.51265 Y9.85682
N564 G1 X36.45497 Y9.99528
N565 G1 X36.38571 Y10.12834
N566 G1 X36.30586 Y10.25532
N567 G1 X36.2137 Y10.3783
N568 G1 X36.11225 Y10.49318
N569 G1 X35.99828 Y10.60304
N570 G1 X35.87559 Y10.70362
N571 G1 X35.57058 Y10.86926
N572 G1 X35.23699 Y10.96511
N573 G1 X34.89058 Y10.98663
N574 G1 X34.5477 Y10.93283
N575 G1 X34.22453 Y10.80623
N576 G1 X33.93633 Y10.61282
N577 G1 X33.69672 Y10.36172
N578 G1 X33.51699 Y10.06479
N579 G1 X33.40565 Y9.73606
N580 G1 X33.36794 Y9.39103
N581 G1 Y7.69445
N582 G1 X33.37544 Y7.54464
N583 G1 X33.40062 Y7.39677
N584 G1 X33.44065 Y7.25221
N585 G1 X33.49295 Y7.11162
N586 G1 X33.5574 Y6.97617
N587 G1 X33.63699 Y6.83982
N588 G1 X33.72469 Y6.714
N589 G1 X33.82814 Y6.58842
N590 G1 X33.94868 Y6.46396
N591 G1 X34.21951 Y6.27166
N592 G1 X34.52411 Y6.13918
N593 G1 X34.84944 Y6.07219
N594 G1 X35.18159 Y6.07355
N595 G1 X35.50637 Y6.14322
N596 G1 X35.80986 Y6.2782
N597 G1 X36.0791 Y6.47273
N598 G1 X36.30257 Y6.71848
N599 G1 X36.4707 Y7.00494
N600 G1 X36.57631 Y7.31986
N601 G1 X36.61488 Y7.64978
N602 G1 X36.62029 Y8.07342
N603 G1 X36.62088 Y8.77116
N604 G1 X36.61349 Y8.8706 F381
N605 G1 X36.59832 Y8.96916
N606 G1 X36.59624 Y8.99074
N607 G1 X36.59832 Y9.01232
N608 G1 X36.61349 Y9.11088
N609 G1 X36.62088 Y9.21032
N610 G1 Y10.64945 F1164.2
N611 G1 X36.61338 Y10.79927
N612 G1 X36.58493 Y10.94654
N613 G1 X36.54147 Y11.09011
N614 G1 X36.48382 Y11.22859
N615 G1 X36.41464 Y11.36168
N616 G1 X36.33413 Y11.48825
N617 G1 X36.23532 Y11.61806
N618 G1 X36.12958 Y11.73599
N619 G1 X36.01312 Y11.84656
N620 G1 X35.87125 Y11.96109
N621 G1 X35.56543 Y12.12433
N622 G1 X35.23164 Y12.21791
N623 G1 X34.88554 Y12.23745
N624 G1 X34.54334 Y12.18203
N625 G1 X34.2211 Y12.05425
N626 G1 X33.93391 Y11.86009
N627 G1 X33.69525 Y11.60867
N628 G1 X33.51631 Y11.31177
N629 G1 X33.40548 Y10.98331
N630 G1 X33.36794 Y10.63869
N631 G1 Y9.39103
N632 G3 X33.7455 Y8.73785 CR=0.80274 F762
N633 G3 X33.98575 Y8.63778 CR=0.80274 F1164.2
N634 G3 X36.4519 Y9.88694 CR=2.14385
N635 G3 X36.62088 Y10.64945 CR=2.14385 F381
N636 G1 Y11.8631 Z49.41411 F1164.2
N637 G1 X36.61338 Y12.01291
N638 G1 X36.58885 Y12.16089
N639 G1 X36.54934 Y12.30559
N640 G1 X36.49493 Y12.44538
N641 G1 X36.42861 Y12.57992
N642 G1 X36.35091 Y12.70823
N643 G1 X36.25536 Y12.83868
N644 G1 X36.15105 Y12.95943
N645 G1 X36.03973 Y13.06911
N646 G1 X36.00854 Y13.09525
N647 G1 X35.73436 Y13.28063
N648 G1 X35.42803 Y13.40593
N649 G1 X35.10253 Y13.46586
N650 G1 X34.77166 Y13.45787
N651 G1 X34.44944 Y13.38229
N652 G1 X34.14952 Y13.24234
N653 G1 X33.88461 Y13.04395
N654 G1 X33.66593 Y12.79551
N655 G1 X33.50276 Y12.50756
N656 G1 X33.40201 Y12.19231
N657 G1 X33.36794 Y11.8631
N658 G1 Y10.63869
N659 G3 X33.74539 Y9.98542 CR=0.80303 F762
N660 G1 X33.81554 Y9.94639 Z49.41411 F1164.2
N661 G1 X33.88923 Y9.91455
N662 G1 X33.96573 Y9.89022
N663 G3 X36.45013 Y11.10109 CR=2.11671
N664 G3 X36.62088 Y11.8631 CR=2.11671 F381
N665 G1 Y13.11464 Z49.41411 F1164.2
N666 G1 X36.61338 Y13.26445
N667 G1 X36.58701 Y13.41211
N668 G1 X36.54521 Y13.55617
N669 G1 X36.48986 Y13.69559
N670 G1 X36.4213 Y13.829
N671 G1 X36.34211 Y13.95639
N672 G1 X36.25266 Y14.07681
N673 G1 X36.14154 Y14.20317
N674 G1 X36.02361 Y14.31732
N675 G1 X35.89568 Y14.42264
N676 G1 X35.58861 Y14.59019
N677 G1 X35.25256 Y14.68739
N678 G1 X34.90346 Y14.70964
N679 G1 X34.5578 Y14.65588
N680 G1 X34.23194 Y14.52866
N681 G1 X33.94129 Y14.33399
N682 G1 X33.6996 Y14.08109
N683 G1 X33.51831 Y13.78192
N684 G1 X33.40599 Y13.45063
N685 G1 X33.36794 Y13.10289
N686 G1 Y11.8631
N687 G3 X33.74548 Y11.2099 CR=0.8028 F762
N688 G3 X33.98172 Y11.11077 CR=0.8028 F1164.2
N689 G3 X36.45154 Y12.35223 CR=2.13829
N690 G3 X36.62088 Y13.11464 CR=2.13829 F381
N691 G1 Y14.34534 Z49.41411 F1164.2
N692 G1 X36.61338 Y14.49515
N693 G1 X36.58808 Y14.643
N694 G1 X36.54756 Y14.78742
N695 G1 X36.49223 Y14.92684
N696 G1 X36.42512 Y15.06099
N697 G1 X36.34652 Y15.18875
N698 G1 X36.2499 Y15.31902
N699 G1 X36.1459 Y15.43797
N700 G1 X36.0332 Y15.54769
N701 G1 X35.89373 Y15.66318
N702 G1 X35.58741 Y15.8314
N703 G1 X35.25192 Y15.92932
N704 G1 X34.9032 Y15.9523
N705 G1 X34.55777 Y15.89923
N706 G1 X34.23202 Y15.77264
N707 G1 X33.9414 Y15.57854
N708 G1 X33.69969 Y15.32613
N709 G1 X33.51836 Y15.02737
N710 G1 X33.406 Y14.69644
N711 G1 X33.36794 Y14.34904
N712 G1 Y13.10289
N713 G3 X33.74545 Y12.44967 CR=0.80287 F762
N714 G3 X33.97638 Y12.35181 CR=0.80288 F1164.2
N715 G3 X36.45107 Y13.58306 CR=2.13101
N716 G3 X36.62088 Y14.34534 CR=2.13101 F381
N717 G1 Y15.57603 Z49.41411 F1164.2
N718 G1 X36.61338 Y15.72584
N719 G1 X36.58924 Y15.87389
N720 G1 X36.54988 Y16.01863
N721 G1 X36.49557 Y16.15845
N722 G1 X36.42939 Y16.29307
N723 G1 X36.3517 Y16.42138
N724 G1 X36.2561 Y16.55201
N725 G1 X36.15274 Y16.67177
N726 G1 X36.04138 Y16.78157
N727 G1 X35.90318 Y16.89752
N728 G1 X35.75867 Y17.00018
N729 G1 X35.45648 Y17.13948
N730 G1 X35.13184 Y17.21247
N731 G1 X34.79911 Y17.2159
N732 G1 X34.47303 Y17.14963
N733 G1 X34.16803 Y17.01659
N734 G1 X33.89763 Y16.82268
N735 G1 X33.67379 Y16.57647
N736 G1 X33.50643 Y16.28888
N737 G1 X33.40295 Y15.97263
N738 G1 X33.36794 Y15.64173
N739 G1 Y14.34904
N740 G3 X33.7454 Y13.69578 CR=0.80301 F762
N741 G1 X33.81601 Y13.65652 Z49.41411 F1164.2
N742 G1 X33.89022 Y13.62455
N743 G1 X33.96726 Y13.60019
N744 G3 X36.45027 Y14.81399 CR=2.11875
N745 G3 X36.62088 Y15.57603 CR=2.11875 F381
N746 G1 Y16.78968 Z49.41411 F1164.2
N747 G1 X36.61291 Y16.94881
N748 G1 X36.59341 Y17.09753
N749 G1 X36.55796 Y17.24329
N750 G1 X36.50858 Y17.38492
N751 G1 X36.44548 Y17.52101
N752 G1 X36.37136 Y17.65142
N753 G1 X36.28662 Y17.77518
N754 G1 X36.18148 Y17.90403
N755 G1 X36.06872 Y18.02153
N756 G1 X35.94762 Y18.12897
N757 G1 X35.67051 Y18.29682
N758 G1 X35.36542 Y18.40582
N759 G1 X35.04469 Y18.45156
N760 G1 X34.72129 Y18.4322
N761 G1 X34.40831 Y18.34852
N762 G1 X34.1184 Y18.2039
N763 G1 X33.86329 Y18.00419
N764 G1 X33.65331 Y17.75747
N765 G1 X33.49695 Y17.47373
N766 G1 X33.40052 Y17.16443
N767 G1 X33.36794 Y16.84209
N768 G1 Y15.64173
N769 G3 X33.74515 Y14.98827 CR=0.8037 F762
N770 G1 X33.82997 Y14.94209 Z49.41411 F1164.2
N771 G1 X33.91971 Y14.90642
N772 G3 X36.44619 Y16.02883 CR=2.05842
N773 G3 X36.62088 Y16.78968 CR=2.05842 F381
N774 G1 X36.62029 Y17.92658 Z49.41411 F1164.2
N775 G1 X36.61763 Y18.13501
N776 G1 X36.60821 Y18.28472
N777 G1 X36.57801 Y18.43164
N778 G1 X36.53234 Y18.57452
N779 G1 X36.4737 Y18.71259
N780 G1 X36.40224 Y18.84447
N781 G1 X36.32021 Y18.97005
N782 G1 X36.22836 Y19.08864
N783 G1 X36.11441 Y19.21312
N784 G1 X35.99196 Y19.32702
N785 G1 X35.86188 Y19.42983
N786 G1 X35.55541 Y19.5896
N787 G1 X35.22183 Y19.68
N788 G1 X34.87663 Y19.69682
N789 G1 X34.53584 Y19.63929
N790 G1 X34.21529 Y19.51008
N791 G1 X33.92986 Y19.31519
N792 G1 X33.69283 Y19.06367
N793 G1 X33.51518 Y18.7672
N794 G1 X33.40519 Y18.43956
N795 G1 X33.36794 Y18.09596
N796 G1 Y16.84209
N797 G3 X33.74443 Y16.18804 CR=0.80573 F762
N798 G3 X33.99688 Y16.08401 CR=0.80573 F1164.2
N799 G3 X36.45885 Y17.37028 CR=2.15069
N800 G3 X36.61763 Y18.13501 CR=2.15069 F381
N801 G1 X36.6106 Y18.68451 Z49.41411 F1164.2
N802 G1 X36.60301 Y19.06348
N803 G1 X36.59317 Y19.36571
N804 G1 X36.5808 Y19.5152
N805 G1 X36.55266 Y19.66253
N806 G1 X36.5093 Y19.80613
N807 G1 X36.4513 Y19.94447
N808 G1 X36.38161 Y20.07729
N809 G1 X36.30048 Y20.20345
N810 G1 X36.20192 Y20.33119
N811 G1 X36.09654 Y20.44718
N812 G1 X35.98069 Y20.55574
N813 G1 X35.83945 Y20.66824
N814 G1 X35.694 Y20.76611
N815 G1 X35.54083 Y20.85217
N816 G1 X35.36096 Y20.93501
N817 G1 X35.18065 Y21.00108
N818 G1 X34.99581 Y21.05241
N819 G1 X34.94929 Y21.06139
N820 G1 X34.83031 Y21.08075
N821 G1 X34.71041 Y21.09313
N822 G1 X34.59 Y21.09848
N823 G3 X34.04852 Y20.5939 CR=0.662 F762
N824 G3 X34.25883 Y19.94528 CR=0.662 F1164.2
N825 G1 X35.49653 Y18.86794 Z49.41411
N826 G3 X36.17797 Y18.75299 CR=0.662
N827 G3 X36.59317 Y19.36571 CR=0.662 F381
N828 G1 X36.59067 Y19.44245 Z49.41411 F1164.2
N829 G1 X36.57409 Y19.63193
N830 G1 X36.5326 Y19.82142
N831 G1 X36.45879 Y20.0109
N832 G1 X36.35656 Y20.20038
N833 G1 X36.30049 Y20.30017
N834 G1 X36.20522 Y20.43976
N835 G1 X36.07777 Y20.57935
N836 G1 X35.92038 Y20.70626
N837 G1 X35.73033 Y20.83609
N838 G1 X35.54027 Y20.94029
N839 G1 X35.49735 Y20.95832
N840 G1 X35.32875 Y21.01299
N841 G1 X35.16016 Y21.04552
N842 G1 X34.78005 Y21.09559
N843 G1 X34.59 Y21.09848
N844 G1 X34.39994 Y21.07517
N845 G1 X34.23321 Y21.02982
N846 G1 X34.06648 Y20.95832
N847 G1 X34.01983 Y20.93299
N848 G1 X33.82978 Y20.8011
N849 G1 X33.72457 Y20.70383
N850 G1 X33.63972 Y20.60657
N851 G1 X33.61891 Y20.57935
N852 G1 X33.55486 Y20.48461
N853 G1 X33.50227 Y20.38987
N854 G1 X33.4258 Y20.20038
N855 G1 X33.38216 Y20.0109
N856 G1 X33.36794 Y19.82142
N857 G1 Y18.09596
N858 G3 X33.62871 Y17.36833 CR=1.27 F762
N859 G1 X33.71514 Y17.25542 Z49.4221
N860 G1 X33.80048 Y17.14393 Z49.44595
N861 G1 X33.88367 Y17.03526 Z49.48538
N862 G1 X33.96364 Y16.93078 Z49.53988
N863 G1 X34.03941 Y16.8318 Z49.60877
N864 G1 X34.11001 Y16.73957 Z49.69119
N865 G1 X34.17456 Y16.65524 Z49.78609
N866 G1 X34.23224 Y16.57988 Z49.89228
N867 G1 X34.28234 Y16.51444 Z50.00843
N868 G1 X34.32421 Y16.45974 Z50.13308
N869 G1 X34.35734 Y16.41646 Z50.26466
N870 G1 X34.3813 Y16.38515 Z50.40151
N871 G1 X34.3958 Y16.36621 Z50.54192
N872 G1 X34.40066 Y16.35987 Z50.68411
N873 G0 Z73
N874 G0 X34.23832 Y9.53964
N875 G0 Z51.95411
N876 G1 Z50.68411 F381
N877 G1 X34.23424 Y9.53278 Z50.54192
N878 G1 X34.22205 Y9.51227 Z50.40151
N879 G1 X34.2019 Y9.47838 Z50.26466
N880 G1 X34.17404 Y9.43154 Z50.13308
N881 G1 X34.13883 Y9.37232 Z50.00843
N882 G1 X34.09672 Y9.30148 Z49.89228
N883 G1 X34.04821 Y9.21991 Z49.78609
N884 G1 X33.99394 Y9.12864 Z49.69119
N885 G1 X33.93458 Y9.0288 Z49.60877
N886 G1 X33.87088 Y8.92166 Z49.53988
N887 G1 X33.80363 Y8.80856 Z49.48538
N888 G1 X33.73369 Y8.69093 Z49.44595
N889 G1 X33.66193 Y8.57025 Z49.4221
N890 G1 X33.58926 Y8.44802 Z49.41411
N891 G3 X33.36794 Y7.69445 CR=1.58258
N892 G1 Y6.44291 Z49.41411 F1164.2
N893 G1 X33.37544 Y6.2931
N894 G1 X33.39927 Y6.14501
N895 G1 X33.43867 Y6.00027
N896 G1 X33.49203 Y5.86009
N897 G1 X33.68388 Y5.56049
N898 G1 X33.93565 Y5.30915
N899 G1 X34.23557 Y5.11782
N900 G1 X34.56961 Y4.99544
N901 G1 X34.92216 Y4.94775
N902 G1 X35.27671 Y4.97697
N903 G3 X35.72512 Y5.54829 CR=0.57762 F762
N904 G3 X35.48941 Y6.00556 CR=0.57762 F1164.2
N905 G1 X34.28706 Y6.88835 Z49.41411
N906 G3 X33.84398 Y6.99143 CR=0.57762
N907 G3 X33.36794 Y6.44291 CR=0.57762 F381
N908 G1 Y6.17858 Z49.41411 F1164.2
N909 G1 X33.38216 Y5.9891
N910 G1 X33.4258 Y5.79962
N911 G1 X33.50227 Y5.61013
N912 G1 X33.55486 Y5.51539
N913 G1 X33.61891 Y5.42065
N914 G1 X33.63972 Y5.39344
N915 G1 X33.72457 Y5.29617
N916 G1 X33.82978 Y5.1989
N917 G1 X34.01983 Y5.06701
N918 G1 X34.06648 Y5.04168
N919 G1 X34.23321 Y4.97018
N920 G1 X34.39994 Y4.92483
N921 G1 X34.59 Y4.90152
N922 G1 X34.78005 Y4.90441
N923 G1 X35.16016 Y4.95448
N924 G1 X35.32875 Y4.98701
N925 G1 X35.49735 Y5.04168
N926 G1 X35.54027 Y5.05971
N927 G1 X35.73033 Y5.16391
N928 G1 X35.92038 Y5.29374
N929 G1 X36.07777 Y5.42065
N930 G1 X36.20522 Y5.56024
N931 G1 X36.30049 Y5.69983
N932 G1 X36.35656 Y5.79962
N933 G1 X36.45879 Y5.9891
N934 G1 X36.5326 Y6.17858
N935 G1 X36.57409 Y6.36807
N936 G1 X36.59067 Y6.55755
N937 G1 X36.60301 Y6.93652
N938 G1 X36.6106 Y7.31549
N939 G1 X36.61488 Y7.64978
N940 G1 X36.59894 Y7.75714 Z49.42176 F762
N941 G1 X36.58331 Y7.86243 Z49.44435
N942 G1 X36.56829 Y7.96363 Z49.48142
N943 G1 X36.53288 Y8.04788 Z49.52954
N944 G1 X36.50022 Y8.12559 Z49.58923
N945 G1 X36.47087 Y8.19541 Z49.65946
N946 G1 X36.44535 Y8.25613 Z49.73902
N947 G1 X36.41649 Y8.30002 Z49.82213
N948 G1 X36.39355 Y8.33489 Z49.91116
N949 G1 X36.3769 Y8.36019 Z50.00469
N950 G1 X36.36681 Y8.37554 Z50.10129
N951 G1 X36.36343 Y8.38068 Z50.19941
N952 G0 Z73
N953 G0 X-35.19336 Y9.07403
N954 G0 Z53.54625
N955 G1 Z52.27625 F381
N956 G1 X-35.19845 Y9.06787 Z52.13406
N957 G1 X-35.21363 Y9.04947 Z51.99365
N958 G1 X-35.23873 Y9.01906 Z51.8568
N959 G1 X-35.27342 Y8.97703 Z51.72522
N960 G1 X-35.31727 Y8.9239 Z51.60057
N961 G1 X-35.36973 Y8.86034 Z51.48442
N962 G1 X-35.43014 Y8.78715 Z51.37823
N963 G1 X-35.49774 Y8.70525 Z51.28333
N964 G1 X-35.57167 Y8.61566 Z51.20091
N965 G1 X-35.65102 Y8.51953 Z51.13202
N966 G1 X-35.73477 Y8.41805 Z51.07752
N967 G1 X-35.82188 Y8.31251 Z51.03809
N968 G1 X-35.91126 Y8.20422 Z51.01424
N969 G1 X-36.00177 Y8.09455 Z51.00625
N970 G3 X-35.73887 Y5.34686 CR=1.95178
N971 G3 X-34.58487 Y4.90238 CR=1.95178
N972 G1 X-34.39994 Y4.90046 Z51.00625 F1164.2
N973 G1 X-33.63972 Y4.89993
N974 G1 X-33.48991 Y4.90742
N975 G1 X-33.34255 Y4.93542
N976 G1 X-33.20015 Y4.98258
N977 G1 X-33.06383 Y5.04539
N978 G1 X-32.8885 Y5.14394
N979 G1 X-32.5241 Y5.43501
N980 G1 X-32.21178 Y5.78136
N981 G1 X-31.95983 Y6.17383
N982 G1 X-31.77494 Y6.60198
N983 G1 X-31.662 Y7.05448
N984 G1 X-31.62402 Y7.51931
N985 G3 X-31.82277 Y7.70464 CR=0.19216 F762
N986 G3 X-31.96975 Y7.62795 CR=0.19216
N987 G1 X-32.15712 Y7.3783 Z51.00625
N988 G1 X-33.56648 Y5.50057 F1164.2
N989 G1 X-33.78658 Y5.20732 F381
N990 G3 X-33.74825 Y4.93828 CR=0.19216
N991 G3 X-33.63972 Y4.89993 CR=0.19216
N992 G1 X-32.87951 Y4.90017 Z51.00625 F1164.2
N993 G1 X-32.68945 Y4.9186
N994 G1 X-32.49939 Y4.96697
N995 G1 X-32.32356 Y5.04168
N996 G1 X-32.22142 Y5.10064
N997 G1 X-32.11929 Y5.17226
N998 G1 X-31.98037 Y5.29645
N999 G1 X-31.87498 Y5.42065
N1000 G1 X-31.79893 Y5.5354
N1001 G1 X-31.73917 Y5.65016
N1002 G1 X-31.68188 Y5.79962
N1003 G1 X-31.63824 Y5.9891
N1004 G1 X-31.62402 Y6.17858
N1005 G1 Y19.82142
N1006 G1 X-31.63824 Y20.0109
N1007 G1 X-31.68188 Y20.20038
N1008 G1 X-31.73917 Y20.34984
N1009 G1 X-31.79893 Y20.4646
N1010 G1 X-31.87498 Y20.57935
N1011 G1 X-31.98037 Y20.70355
N1012 G1 X-32.11929 Y20.82774
N1013 G1 X-32.22142 Y20.89936
N1014 G1 X-32.32356 Y20.95832
N1015 G1 X-32.49939 Y21.03303
N1016 G1 X-32.68945 Y21.0814
N1017 G1 X-32.87951 Y21.09982
N1018 G1 X-34.39994 Y21.09954
N1019 G1 X-34.50691 Y21.08112 Z51.01391 F762
N1020 G1 X-34.61181 Y21.06305 Z51.03649
N1021 G1 X-34.71263 Y21.04569 Z51.07356
N1022 G1 X-34.79604 Y21.00834 Z51.12168
N1023 G1 X-34.87297 Y20.97389 Z51.18137
N1024 G1 X-34.94209 Y20.94293 Z51.2516
N1025 G1 X-35.00221 Y20.91601 Z51.33116
N1026 G1 X-35.04542 Y20.88613 Z51.41427
N1027 G1 X-35.07974 Y20.8624 Z51.5033
N1028 G1 X-35.10465 Y20.84517 Z51.59684
N1029 G1 X-35.11976 Y20.83472 Z51.69343
N1030 G1 X-35.12482 Y20.83122 Z51.79155
N1031 G0 Z73
N1032 G0 X35.19336 Y16.92597
N1033 G0 Z53.54625
N1034 G1 Z52.27625 F381
N1035 G1 X35.19845 Y16.93213 Z52.13406
N1036 G1 X35.21363 Y16.95053 Z51.99365
N1037 G1 X35.23873 Y16.98094 Z51.8568
N1038 G1 X35.27342 Y17.02297 Z51.72522
N1039 G1 X35.31727 Y17.0761 Z51.60057
N1040 G1 X35.36973 Y17.13966 Z51.48442
N1041 G1 X35.43014 Y17.21285 Z51.37823
N1042 G1 X35.49774 Y17.29475 Z51.28333
N1043 G1 X35.57167 Y17.38434 Z51.20091
N1044 G1 X35.65102 Y17.48047 Z51.13202
N1045 G1 X35.73477 Y17.58195 Z51.07752
N1046 G1 X35.82188 Y17.68749 Z51.03809
N1047 G1 X35.91126 Y17.79578 Z51.01424
N1048 G1 X36.00177 Y17.90545 Z51.00625
N1049 G3 X35.73887 Y20.65313 CR=1.95178
N1050 G3 X34.58487 Y21.09762 CR=1.95178
N1051 G1 X34.39994 Y21.09954 Z51.00625 F1164.2
N1052 G1 X33.63972 Y21.10007
N1053 G1 X33.48991 Y21.09258
N1054 G1 X33.34255 Y21.06458
N1055 G1 X33.20015 Y21.01742
N1056 G1 X33.06383 Y20.95461
N1057 G1 X32.8885 Y20.85605
N1058 G1 X32.5241 Y20.56499
N1059 G1 X32.21178 Y20.21864
N1060 G1 X31.95983 Y19.82617
N1061 G1 X31.77494 Y19.39802
N1062 G1 X31.662 Y18.94552
N1063 G1 X31.62402 Y18.48069
N1064 G3 X31.82277 Y18.29536 CR=0.19216 F762
N1065 G3 X31.96975 Y18.37205 CR=0.19216
N1066 G1 X32.15712 Y18.6217 Z51.00625
N1067 G1 X33.56648 Y20.49943 F1164.2
N1068 G1 X33.78658 Y20.79268 F381
N1069 G3 X33.74825 Y21.06172 CR=0.19216
N1070 G3 X33.63972 Y21.10007 CR=0.19216
N1071 G1 X32.87951 Y21.09982 Z51.00625 F1164.2
N1072 G1 X32.68945 Y21.0814
N1073 G1 X32.49939 Y21.03303
N1074 G1 X32.32356 Y20.95832
N1075 G1 X32.22142 Y20.89936
N1076 G1 X32.11929 Y20.82774
N1077 G1 X31.98037 Y20.70355
N1078 G1 X31.87498 Y20.57935
N1079 G1 X31.79893 Y20.4646
N1080 G1 X31.73917 Y20.34984
N1081 G1 X31.68188 Y20.20038
N1082 G1 X31.63824 Y20.0109
N1083 G1 X31.62402 Y19.82142
N1084 G1 Y6.17858
N1085 G1 X31.63824 Y5.9891
N1086 G1 X31.68188 Y5.79962
N1087 G1 X31.73917 Y5.65016
N1088 G1 X31.79893 Y5.5354
N1089 G1 X31.87498 Y5.42065
N1090 G1 X31.98037 Y5.29645
N1091 G1 X32.11929 Y5.17226
N1092 G1 X32.22142 Y5.10064
N1093 G1 X32.32356 Y5.04168
N1094 G1 X32.49939 Y4.96697
N1095 G1 X32.68945 Y4.9186
N1096 G1 X32.87951 Y4.90017
N1097 G1 X34.39994 Y4.90046
N1098 G1 X34.50691 Y4.91888 Z51.01391 F762
N1099 G1 X34.61181 Y4.93695 Z51.03649
N1100 G1 X34.71263 Y4.95431 Z51.07356
N1101 G1 X34.79604 Y4.99166 Z51.12168
N1102 G1 X34.87297 Y5.02611 Z51.18137
N1103 G1 X34.94209 Y5.05707 Z51.2516
N1104 G1 X35.00221 Y5.08399 Z51.33116
N1105 G1 X35.04542 Y5.11387 Z51.41427
N1106 G1 X35.07974 Y5.1376 Z51.5033
N1107 G1 X35.10465 Y5.15483 Z51.59684
N1108 G1 X35.11976 Y5.16528 Z51.69343
N1109 G1 X35.12482 Y5.16878 Z51.79155
N1110 G0 Z73
N1111 G0 X-33.76551 Y8.7458
N1112 G0 Z55.83225
N1113 G1 Z54.56225 F381
N1114 G1 X-33.77053 Y8.73959 Z54.42006
N1115 G1 X-33.78552 Y8.72103 Z54.27965
N1116 G1 X-33.8103 Y8.69037 Z54.1428
N1117 G1 X-33.84456 Y8.64798 Z54.01122
N1118 G1 X-33.88786 Y8.5944 Z53.88657
N1119 G1 X-33.93966 Y8.5303 Z53.77042
N1120 G1 X-33.99931 Y8.45649 Z53.66423
N1121 G1 X-34.06605 Y8.37389 Z53.56933
N1122 G1 X-34.13906 Y8.28355 Z53.48691
N1123 G1 X-34.21741 Y8.1866 Z53.41802
N1124 G1 X-34.30011 Y8.08427 Z53.36352
N1125 G1 X-34.38612 Y7.97782 Z53.32409
N1126 G1 X-34.47438 Y7.86862 Z53.30024
N1127 G1 X-34.56375 Y7.75802 Z53.29225
N1128 G3 X-34.30174 Y5.28899 CR=1.75568
N1129 G3 X-33.25961 Y4.89991 CR=1.75568
N1130 G1 X-32.11929 Z53.29225 F1164.2
N1131 G1 X-31.91022 Y4.90213
N1132 G1 X-31.7605 Y4.91127
N1133 G1 X-31.61277 Y4.93723
N1134 G1 X-31.46981 Y4.98267
N1135 G1 X-31.21331 Y5.12882
N1136 G1 X-30.98931 Y5.3211
N1137 G1 X-30.80598 Y5.5525
N1138 G1 X-30.67002 Y5.81454
N1139 G1 X-30.58641 Y6.09767
N1140 G1 X-30.5582 Y6.39154
N1141 G1 X-30.56906 Y6.52128 Z53.30532 F762
N1142 G1 X-30.59248 Y6.64935 Z53.31838
N1143 G1 X-30.62822 Y6.77454 Z53.33145
N1144 G1 X-30.67596 Y6.89567 Z53.34451
N1145 G1 X-30.73523 Y7.01159 Z53.35758
N1146 G1 X-30.80548 Y7.1212 Z53.37064
N1147 G1 X-30.88899 Y7.22684 Z53.38415 F1164.2
N1148 G1 X-30.98268 Y7.32356 Z53.39766
N1149 G1 X-31.08562 Y7.41037 Z53.41118
N1150 G1 X-31.19675 Y7.48641 Z53.42469
N1151 G1 X-31.31496 Y7.5509 Z53.4382
N1152 G1 X-31.43905 Y7.60318 Z53.45171
N1153 G1 X-31.56777 Y7.64274 Z53.46523
N1154 G1 X-31.69981 Y7.66917 Z53.47874
N1155 G1 X-31.83383 Y7.6822 Z53.49225
N1156 G3 X-32.37623 Y7.59466 CR=1.33885
N1157 G3 X-33.26042 Y6.13433 CR=1.39276
N1158 G1 X-33.23848 Y6.00147 Z53.47874
N1159 G1 X-33.20382 Y5.87134 Z53.46523
N1160 G1 X-33.15676 Y5.74517 Z53.45171
N1161 G1 X-33.09772 Y5.62414 Z53.4382
N1162 G1 X-33.02728 Y5.50938 Z53.42469
N1163 G1 X-32.94608 Y5.40195 Z53.41118
N1164 G1 X-32.85489 Y5.30287 Z53.39766
N1165 G1 X-32.75456 Y5.21305 Z53.38415
N1166 G1 X-32.64602 Y5.13335 Z53.37064
N1167 G1 X-32.53423 Y5.0666 Z53.35758 F381
N1168 G1 X-32.41669 Y5.01059 Z53.34451
N1169 G1 X-32.29444 Y4.96579 Z53.33145
N1170 G1 X-32.16855 Y4.93261 Z53.31838
N1171 G1 X-32.0401 Y4.91132 Z53.30532
N1172 G1 X-31.91022 Y4.90213 Z53.29225
N1173 G1 X-31.73917 Y4.904 F1164.2
N1174 G1 X-31.54912 Y4.93411
N1175 G1 X-31.35906 Y4.99533
N1176 G1 X-31.25899 Y5.04168
N1177 G1 X-31.11897 Y5.12507
N1178 G1 X-30.97895 Y5.23429
N1179 G1 X-30.88559 Y5.32747
N1180 G1 X-30.80916 Y5.42065
N1181 G1 X-30.74511 Y5.51539
N1182 G1 X-30.69252 Y5.61013
N1183 G1 X-30.61606 Y5.79962
N1184 G1 X-30.59884 Y5.85985
N1185 G1 X-30.56824 Y6.01921
N1186 G1 X-30.5582 Y6.17858
N1187 G1 Y19.82142
N1188 G1 X-30.56824 Y19.98079
N1189 G1 X-30.59884 Y20.14015
N1190 G1 X-30.61606 Y20.20038
N1191 G1 X-30.69252 Y20.38987
N1192 G1 X-30.74511 Y20.48461
N1193 G1 X-30.80916 Y20.57935
N1194 G1 X-30.88559 Y20.67253
N1195 G1 X-30.97895 Y20.76571
N1196 G1 X-31.11897 Y20.87494
N1197 G1 X-31.25899 Y20.95832
N1198 G1 X-31.35906 Y21.00467
N1199 G1 X-31.54912 Y21.06589
N1200 G1 X-31.73917 Y21.09599
N1201 G1 X-32.11929 Y21.10017
N1202 G1 X-32.49939
N1203 G1 X-32.60655 Y21.08283 Z53.2999 F762
N1204 G1 X-32.71163 Y21.06585 Z53.32249
N1205 G1 X-32.81262 Y21.04953 Z53.35956
N1206 G1 X-32.89641 Y21.01304 Z53.40768
N1207 G1 X-32.9737 Y20.97938 Z53.46737
N1208 G1 X-33.04313 Y20.94915 Z53.5376
N1209 G1 X-33.10352 Y20.92285 Z53.61716
N1210 G1 X-33.14704 Y20.89342 Z53.70027
N1211 G1 X-33.18161 Y20.87004 Z53.7893
N1212 G1 X-33.2067 Y20.85307 Z53.88284
N1213 G1 X-33.22191 Y20.84278 Z53.97943
N1214 G1 X-33.22701 Y20.83933 Z54.07756
N1215 G0 Z73
N1216 G0 X33.73072 Y17.2542
N1217 G0 Z55.83225
N1218 G1 Z54.56225 F381
N1219 G1 X33.73574 Y17.26041 Z54.42006
N1220 G1 X33.75074 Y17.27897 Z54.27965
N1221 G1 X33.77552 Y17.30963 Z54.1428
N1222 G1 X33.80978 Y17.35202 Z54.01122
N1223 G1 X33.85308 Y17.4056 Z53.88657
N1224 G1 X33.90488 Y17.4697 Z53.77042
N1225 G1 X33.96452 Y17.54352 Z53.66423
N1226 G1 X34.03127 Y17.62611 Z53.56933
N1227 G1 X34.10428 Y17.71645 Z53.48691
N1228 G1 X34.18262 Y17.8134 Z53.41802
N1229 G1 X34.26533 Y17.91574 Z53.36352
N1230 G1 X34.35134 Y18.02218 Z53.32409
N1231 G1 X34.43959 Y18.13138 Z53.30024
N1232 G1 X34.52897 Y18.24198 Z53.29225
N1233 G3 X34.26696 Y20.71102 CR=1.75568
N1234 G3 X33.22483 Y21.1001 CR=1.75568
N1235 G1 X32.11929 Z53.29225 F1164.2
N1236 G1 X31.91022 Y21.09787
N1237 G1 X31.7605 Y21.08873
N1238 G1 X31.61277 Y21.06277
N1239 G1 X31.46981 Y21.01733
N1240 G1 X31.21331 Y20.87118
N1241 G1 X30.98931 Y20.6789
N1242 G1 X30.80598 Y20.4475
N1243 G1 X30.67002 Y20.18546
N1244 G1 X30.58641 Y19.90233
N1245 G1 X30.5582 Y19.60846
N1246 G1 X30.56906 Y19.47872 Z53.30532 F762
N1247 G1 X30.59248 Y19.35065 Z53.31838
N1248 G1 X30.62822 Y19.22546 Z53.33145
N1249 G1 X30.67596 Y19.10433 Z53.34451
N1250 G1 X30.73523 Y18.98841 Z53.35758
N1251 G1 X30.80548 Y18.8788 Z53.37064
N1252 G1 X30.88899 Y18.77316 Z53.38415 F1164.2
N1253 G1 X30.98268 Y18.67644 Z53.39766
N1254 G1 X31.08562 Y18.58963 Z53.41118
N1255 G1 X31.19675 Y18.51359 Z53.42469
N1256 G1 X31.31496 Y18.4491 Z53.4382
N1257 G1 X31.43905 Y18.39682 Z53.45171
N1258 G1 X31.56777 Y18.35726 Z53.46523
N1259 G1 X31.69981 Y18.33083 Z53.47874
N1260 G1 X31.83383 Y18.3178 Z53.49225
N1261 G3 X32.37623 Y18.40534 CR=1.33885
N1262 G3 X33.26042 Y19.86567 CR=1.39276
N1263 G1 X33.23848 Y19.99853 Z53.47874
N1264 G1 X33.20382 Y20.12866 Z53.46523
N1265 G1 X33.15676 Y20.25483 Z53.45171
N1266 G1 X33.09772 Y20.37586 Z53.4382
N1267 G1 X33.02728 Y20.49062 Z53.42469
N1268 G1 X32.94608 Y20.59805 Z53.41118
N1269 G1 X32.85489 Y20.69713 Z53.39766
N1270 G1 X32.75456 Y20.78695 Z53.38415
N1271 G1 X32.64602 Y20.86665 Z53.37064
N1272 G1 X32.53423 Y20.9334 Z53.35758 F381
N1273 G1 X32.41669 Y20.98941 Z53.34451
N1274 G1 X32.29444 Y21.03421 Z53.33145
N1275 G1 X32.16855 Y21.06739 Z53.31838
N1276 G1 X32.0401 Y21.08868 Z53.30532
N1277 G1 X31.91022 Y21.09787 Z53.29225
N1278 G1 X31.73917 Y21.09599 F1164.2
N1279 G1 X31.54912 Y21.06589
N1280 G1 X31.35906 Y21.00467
N1281 G1 X31.25899 Y20.95832
N1282 G1 X31.11897 Y20.87494
N1283 G1 X30.97895 Y20.76571
N1284 G1 X30.88559 Y20.67253
N1285 G1 X30.80916 Y20.57935
N1286 G1 X30.74511 Y20.48461
N1287 G1 X30.69252 Y20.38987
N1288 G1 X30.61606 Y20.20038
N1289 G1 X30.59884 Y20.14015
N1290 G1 X30.56824 Y19.98079
N1291 G1 X30.5582 Y19.82142
N1292 G1 Y6.17858
N1293 G1 X30.56824 Y6.01921
N1294 G1 X30.59884 Y5.85985
N1295 G1 X30.61606 Y5.79962
N1296 G1 X30.69252 Y5.61013
N1297 G1 X30.74511 Y5.51539
N1298 G1 X30.80916 Y5.42065
N1299 G1 X30.88559 Y5.32747
N1300 G1 X30.97895 Y5.23429
N1301 G1 X31.11897 Y5.12507
N1302 G1 X31.25899 Y5.04168
N1303 G1 X31.35906 Y4.99533
N1304 G1 X31.54912 Y4.93411
N1305 G1 X31.73917 Y4.904
N1306 G1 X32.11929 Y4.89983
N1307 G1 X32.49939
N1308 G1 X32.60655 Y4.91717 Z53.2999 F762
N1309 G1 X32.71163 Y4.93415 Z53.32249
N1310 G1 X32.81262 Y4.95047 Z53.35956
N1311 G1 X32.89641 Y4.98696 Z53.40768
N1312 G1 X32.9737 Y5.02062 Z53.46737
N1313 G1 X33.04313 Y5.05086 Z53.5376
N1314 G1 X33.10352 Y5.07715 Z53.61716
N1315 G1 X33.14704 Y5.10658 Z53.70027
N1316 G1 X33.18161 Y5.12997 Z53.7893
N1317 G1 X33.2067 Y5.14693 Z53.88284
N1318 G1 X33.22191 Y5.15722 Z53.97943
N1319 G1 X33.22701 Y5.16067 Z54.07756
N1320 G0 Z73
N1321 G0 X-34.6762 Y8.21248
N1322 G0 Z58.11825
N1323 G1 Z56.84825 F381
N1324 G1 X-34.67481 Y8.20462 Z56.70606
N1325 G1 X-34.67064 Y8.18113 Z56.56565
N1326 G1 X-34.66376 Y8.14231 Z56.4288
N1327 G1 X-34.65425 Y8.08864 Z56.29722
N1328 G1 X-34.64222 Y8.02081 Z56.17257
N1329 G1 X-34.62783 Y7.93966 Z56.05642
N1330 G1 X-34.61127 Y7.84622 Z55.95023
N1331 G1 X-34.59273 Y7.74166 Z55.85533
N1332 G1 X-34.57245 Y7.62729 Z55.77291
N1333 G1 X-34.55069 Y7.50455 Z55.70402
N1334 G1 X-34.52772 Y7.375 Z55.64952
N1335 G1 X-34.50383 Y7.24025 Z55.61009
N1336 G1 X-34.47932 Y7.10199 Z55.58624
N1337 G1 X-34.45449 Y6.96198 Z55.57825
N1338 G3 X-32.0845 Y4.89977 CR=2.50042
N1339 G1 X-31.73917 Y4.89911 Z55.57825 F1164.2
N1340 G1 X-30.97895 Y4.88027
N1341 G1 X-30.94417 Y4.87617
N1342 G1 X-30.79451 Y4.8661
N1343 G1 X-30.64507 Y4.8791
N1344 G1 X-30.49883 Y4.91244
N1345 G1 X-30.35783 Y4.96362
N1346 G1 X-30.21098 Y5.03515
N1347 G1 X-29.90634 Y5.25264
N1348 G1 X-29.64365 Y5.51929
N1349 G1 X-29.43075 Y5.82715
N1350 G1 X-29.27397 Y6.16704
N1351 G1 X-29.17799 Y6.52884
N1352 G1 X-29.14568 Y6.90175
N1353 G1 X-29.15879 Y7.05743 Z55.59393 F762
N1354 G1 X-29.18711 Y7.21108 Z55.60961
N1355 G1 X-29.23036 Y7.3612 Z55.62528
N1356 G1 X-29.28813 Y7.50636 Z55.64096
N1357 G1 X-29.35986 Y7.64516 Z55.65664
N1358 G1 X-29.44209 Y7.77239 Z55.67184 F1164.2
N1359 G1 X-29.53604 Y7.89123 Z55.68704
N1360 G1 X-29.64088 Y8.0006 Z55.70224
N1361 G1 X-29.75564 Y8.0995 Z55.71745
N1362 G1 X-29.87929 Y8.18703 Z55.73265
N1363 G1 X-30.0107 Y8.26241 Z55.74785
N1364 G1 X-30.14869 Y8.32494 Z55.76305
N1365 G1 X-30.292 Y8.37407 Z55.77825
N1366 G3 X-31.22957 Y8.35857 CR=1.59095
N1367 G3 X-32.38321 Y6.10615 CR=1.79594
N1368 G1 X-32.33117 Y5.96387 Z55.76305
N1369 G1 X-32.26731 Y5.82647 Z55.74785
N1370 G1 X-32.19211 Y5.69494 Z55.73265
N1371 G1 X-32.10609 Y5.57022 Z55.71745
N1372 G1 X-32.00986 Y5.4532 Z55.70224
N1373 G1 X-31.90411 Y5.3447 Z55.68704
N1374 G1 X-31.78959 Y5.24551 Z55.67184
N1375 G1 X-31.66712 Y5.15631 Z55.65664
N1376 G1 X-31.53341 Y5.07548 Z55.64096 F381
N1377 G1 X-31.39317 Y5.00658 Z55.62528
N1378 G1 X-31.24748 Y4.95012 Z55.60961
N1379 G1 X-31.09744 Y4.90654 Z55.59393
N1380 G1 X-30.94417 Y4.87617 Z55.57825
N1381 G1 X-30.59884 Y4.83551 F1164.2
N1382 G1 X-30.40879 Y4.82394
N1383 G1 X-30.21873 Y4.84099
N1384 G1 X-30.02868 Y4.88786
N1385 G1 X-29.83862 Y4.96828
N1386 G1 X-29.71563 Y5.04168
N1387 G1 X-29.58707 Y5.14114
N1388 G1 X-29.45852 Y5.27081
N1389 G1 X-29.34617 Y5.42065
N1390 G1 X-29.24628 Y5.61013
N1391 G1 X-29.18307 Y5.79962
N1392 G1 X-29.15103 Y5.9891
N1393 G1 X-29.14568 Y6.17858
N1394 G1 Y19.82142
N1395 G1 X-29.15103 Y20.0109
N1396 G1 X-29.18307 Y20.20038
N1397 G1 X-29.24628 Y20.38987
N1398 G1 X-29.34617 Y20.57935
N1399 G1 X-29.45852 Y20.72919
N1400 G1 X-29.58707 Y20.85886
N1401 G1 X-29.71563 Y20.95832
N1402 G1 X-29.83862 Y21.03172
N1403 G1 X-30.02868 Y21.11214
N1404 G1 X-30.21873 Y21.15901
N1405 G1 X-30.40879 Y21.17606
N1406 G1 X-30.59884 Y21.16449
N1407 G1 X-30.80791 Y21.13988
N1408 G1 X-30.9123 Y21.11015 Z55.5859 F762
N1409 G1 X-31.01468 Y21.08101 Z55.60848
N1410 G1 X-31.11307 Y21.053 Z55.64556
N1411 G1 X-31.19202 Y21.00696 Z55.69368
N1412 G1 X-31.26484 Y20.96451 Z55.75337
N1413 G1 X-31.33027 Y20.92636 Z55.8236
N1414 G1 X-31.38717 Y20.89318 Z55.90316
N1415 G1 X-31.42695 Y20.85887 Z55.98627
N1416 G1 X-31.45855 Y20.83161 Z56.0753
N1417 G1 X-31.48148 Y20.81182 Z56.16884
N1418 G1 X-31.49539 Y20.79983 Z56.26543
N1419 G1 X-31.50005 Y20.79581 Z56.36356
N1420 G0 Z73
N1421 G0 X34.6762 Y17.78752
N1422 G0 Z58.11825
N1423 G1 Z56.84825 F381
N1424 G1 X34.67481 Y17.79538 Z56.70606
N1425 G1 X34.67064 Y17.81887 Z56.56565
N1426 G1 X34.66376 Y17.85769 Z56.4288
N1427 G1 X34.65425 Y17.91136 Z56.29722
N1428 G1 X34.64222 Y17.97919 Z56.17257
N1429 G1 X34.62783 Y18.06034 Z56.05642
N1430 G1 X34.61127 Y18.15378 Z55.95023
N1431 G1 X34.59273 Y18.25834 Z55.85533
N1432 G1 X34.57245 Y18.37271 Z55.77291
N1433 G1 X34.55069 Y18.49545 Z55.70402
N1434 G1 X34.52772 Y18.625 Z55.64952
N1435 G1 X34.50383 Y18.75976 Z55.61009
N1436 G1 X34.47932 Y18.89801 Z55.58624
N1437 G1 X34.45449 Y19.03802 Z55.57825
N1438 G3 X32.0845 Y21.10023 CR=2.50042
N1439 G1 X31.73917 Y21.10089 Z55.57825 F1164.2
N1440 G1 X30.97895 Y21.11973
N1441 G1 X30.94417 Y21.12383
N1442 G1 X30.79451 Y21.1339
N1443 G1 X30.64507 Y21.1209
N1444 G1 X30.49883 Y21.08756
N1445 G1 X30.35783 Y21.03638
N1446 G1 X30.21098 Y20.96486
N1447 G1 X29.90634 Y20.74736
N1448 G1 X29.64365 Y20.48071
N1449 G1 X29.43075 Y20.17285
N1450 G1 X29.27397 Y19.83296
N1451 G1 X29.17799 Y19.47116
N1452 G1 X29.14568 Y19.09825
N1453 G1 X29.15879 Y18.94257 Z55.59393 F762
N1454 G1 X29.18711 Y18.78892 Z55.60961
N1455 G1 X29.23036 Y18.6388 Z55.62528
N1456 G1 X29.28813 Y18.49364 Z55.64096
N1457 G1 X29.35986 Y18.35484 Z55.65664
N1458 G1 X29.44209 Y18.22761 Z55.67184 F1164.2
N1459 G1 X29.53604 Y18.10876 Z55.68704
N1460 G1 X29.64088 Y17.9994 Z55.70224
N1461 G1 X29.75564 Y17.9005 Z55.71745
N1462 G1 X29.87929 Y17.81297 Z55.73265
N1463 G1 X30.0107 Y17.73759 Z55.74785
N1464 G1 X30.14869 Y17.67506 Z55.76305
N1465 G1 X30.292 Y17.62593 Z55.77825
N1466 G3 X31.22957 Y17.64143 CR=1.59095
N1467 G3 X32.38321 Y19.89385 CR=1.79594
N1468 G1 X32.33117 Y20.03614 Z55.76305
N1469 G1 X32.26731 Y20.17353 Z55.74785
N1470 G1 X32.19211 Y20.30506 Z55.73265
N1471 G1 X32.10609 Y20.42978 Z55.71745
N1472 G1 X32.00986 Y20.5468 Z55.70224
N1473 G1 X31.90411 Y20.6553 Z55.68704
N1474 G1 X31.78959 Y20.75449 Z55.67184
N1475 G1 X31.66712 Y20.84369 Z55.65664
N1476 G1 X31.53341 Y20.92452 Z55.64096 F381
N1477 G1 X31.39317 Y20.99342 Z55.62528
N1478 G1 X31.24748 Y21.04988 Z55.60961
N1479 G1 X31.09744 Y21.09346 Z55.59393
N1480 G1 X30.94417 Y21.12383 Z55.57825
N1481 G1 X30.59884 Y21.16449 F1164.2
N1482 G1 X30.40879 Y21.17606
N1483 G1 X30.21873 Y21.15901
N1484 G1 X30.02868 Y21.11214
N1485 G1 X29.83862 Y21.03172
N1486 G1 X29.71563 Y20.95832
N1487 G1 X29.58707 Y20.85886
N1488 G1 X29.45852 Y20.72919
N1489 G1 X29.34617 Y20.57935
N1490 G1 X29.24628 Y20.38987
N1491 G1 X29.18307 Y20.20038
N1492 G1 X29.15103 Y20.0109
N1493 G1 X29.14568 Y19.82142
N1494 G1 Y6.17858
N1495 G1 X29.15103 Y5.9891
N1496 G1 X29.18307 Y5.79962
N1497 G1 X29.24628 Y5.61013
N1498 G1 X29.34617 Y5.42065
N1499 G1 X29.45852 Y5.27081
N1500 G1 X29.58707 Y5.14114
N1501 G1 X29.71563 Y5.04168
N1502 G1 X29.83862 Y4.96828
N1503 G1 X30.02868 Y4.88786
N1504 G1 X30.21873 Y4.84099
N1505 G1 X30.40879 Y4.82394
N1506 G1 X30.59884 Y4.83551
N1507 G1 X30.80791 Y4.86013
N1508 G1 X30.9123 Y4.88985 Z55.5859 F762
N1509 G1 X31.01468 Y4.91899 Z55.60848
N1510 G1 X31.11307 Y4.947 Z55.64556
N1511 G1 X31.19202 Y4.99304 Z55.69368
N1512 G1 X31.26484 Y5.03549 Z55.75337
N1513 G1 X31.33027 Y5.07364 Z55.8236
N1514 G1 X31.38717 Y5.10682 Z55.90316
N1515 G1 X31.42695 Y5.14113 Z55.98627
N1516 G1 X31.45855 Y5.16839 Z56.0753
N1517 G1 X31.48148 Y5.18818 Z56.16884
N1518 G1 X31.49539 Y5.20017 Z56.26543
N1519 G1 X31.50005 Y5.20419 Z56.36356
N1520 G0 Z73
N1521 G0 X-32.97533 Y8.47162
N1522 G0 Z60.40425
N1523 G1 Z59.13425 F381
N1524 G1 X-32.97493 Y8.46364 Z58.99206
N1525 G1 X-32.97375 Y8.43981 Z58.85165
N1526 G1 X-32.97179 Y8.40044 Z58.7148
N1527 G1 X-32.96909 Y8.346 Z58.58322
N1528 G1 X-32.96567 Y8.2772 Z58.45857
N1529 G1 X-32.96158 Y8.19488 Z58.34242
N1530 G1 X-32.95687 Y8.1001 Z58.23623
N1531 G1 X-32.9516 Y7.99404 Z58.14133
N1532 G1 X-32.94584 Y7.87803 Z58.05891
N1533 G1 X-32.93965 Y7.75353 Z57.99002
N1534 G1 X-32.93312 Y7.62212 Z57.93552
N1535 G1 X-32.92633 Y7.48543 Z57.8961
N1536 G1 X-32.91936 Y7.3452 Z57.87224
N1537 G1 X-32.91231 Y7.20318 Z57.86425
N1538 G3 X-30.81986 Y4.85983 CR=2.50042
N1539 G1 X-30.59884 Y4.83144 Z57.86425 F1164.2
N1540 G1 X-30.21873 Y4.77078
N1541 G1 X-29.83862 Y4.68143
N1542 G1 X-29.77243 Y4.66271
N1543 G1 X-29.62809 Y4.6219
N1544 G1 X-29.47862 Y4.60934
N1545 G1 X-29.32884 Y4.6174
N1546 G1 X-29.18106 Y4.64317
N1547 G1 X-29.03713 Y4.68538
N1548 G1 X-28.89847 Y4.7426
N1549 G1 X-28.73797 Y4.82642
N1550 G1 X-28.40917 Y5.06804
N1551 G1 X-28.11848 Y5.35439
N1552 G1 X-27.87196 Y5.67954
N1553 G1 X-27.6747 Y6.03672
N1554 G1 X-27.53081 Y6.41854
N1555 G1 X-27.44326 Y6.81707
N1556 G1 X-27.41387 Y7.22405
N1557 G1 X-27.42721 Y7.37971 Z57.87993 F762
N1558 G1 X-27.4562 Y7.53322 Z57.89561
N1559 G1 X-27.50054 Y7.68302 Z57.91128
N1560 G1 X-27.55978 Y7.82758 Z57.92696
N1561 G1 X-27.63332 Y7.96542 Z57.94264
N1562 G1 X-27.71757 Y8.09133 Z57.95784 F1164.2
N1563 G1 X-27.81374 Y8.20838 Z57.97304
N1564 G1 X-27.92091 Y8.31545 Z57.98824
N1565 G1 X-28.03805 Y8.41151 Z58.00344
N1566 G1 X-28.16404 Y8.49564 Z58.01865
N1567 G1 X-28.29766 Y8.56703 Z58.03385
N1568 G1 X-28.43762 Y8.62498 Z58.04905
N1569 G1 X-28.58259 Y8.66896 Z58.06425
N1570 G3 X-29.19007 Y8.69776 CR=1.54516
N1571 G3 X-31.00014 Y6.59284 CR=2.12984
N1572 G1 Y6.59206 Z58.06425
N1573 G3 X-30.95885 Y6.17468 CR=2.12985
N1574 G1 X-30.91804 Y6.0064 Z58.04688
N1575 G1 X-30.8637 Y5.842 Z58.0295
N1576 G1 X-30.79618 Y5.68255 Z58.01213
N1577 G1 X-30.71593 Y5.52911 Z57.99476
N1578 G1 X-30.62349 Y5.3827 Z57.97738
N1579 G1 X-30.51945 Y5.24428 Z57.96001
N1580 G1 X-30.40452 Y5.11477 Z57.94264
N1581 G1 X-30.29208 Y5.00626 Z57.92696 F381
N1582 G1 X-30.17199 Y4.90628 Z57.91128
N1583 G1 X-30.04488 Y4.81538 Z57.89561
N1584 G1 X-29.91146 Y4.73405 Z57.87993
N1585 G1 X-29.77243 Y4.66271 Z57.86425
N1586 G1 X-29.45852 Y4.52907 F1164.2
N1587 G1 X-29.07841 Y4.36246
N1588 G1 X-28.88835 Y4.31898
N1589 G1 X-28.6983 Y4.30509
N1590 G1 X-28.50824 Y4.3198
N1591 G1 X-28.31819 Y4.36415
N1592 G1 X-28.12813 Y4.44162
N1593 G1 X-28.0331 Y4.49488
N1594 G1 X-27.93808 Y4.55977
N1595 G1 X-27.81754 Y4.66271
N1596 G1 X-27.6661 Y4.83477
N1597 G1 X-27.55797 Y5.00683
N1598 G1 X-27.54045 Y5.04168
N1599 G1 X-27.46692 Y5.23116
N1600 G1 X-27.42581 Y5.42065
N1601 G1 X-27.41387 Y5.79962
N1602 G1 Y20.20038
N1603 G1 X-27.41586 Y20.26344
N1604 G1 X-27.41677 Y20.29234
N1605 G1 X-27.42989 Y20.45294
N1606 G1 X-27.44604 Y20.55188
N1607 G1 X-27.52 Y20.8354
N1608 G1 X-27.64529 Y21.10027
N1609 G1 X-27.81754 Y21.33729
N1610 G3 X-28.55539 Y21.3955 CR=0.662 F762
N1611 G3 X-28.86585 Y20.63622 CR=0.662 F1164.2
N1612 G1 X-28.71497 Y20.11162 Z57.86425
N1613 G3 X-28.36962 Y19.69991 CR=0.662
N1614 G3 X-27.83261 Y19.68007 CR=0.662
N1615 G3 X-27.41677 Y20.29234 CR=0.662 F381
N1616 G1 X-27.42581 Y20.57935 Z57.86425 F1164.2
N1617 G1 X-27.46692 Y20.76884
N1618 G1 X-27.54045 Y20.95832
N1619 G1 X-27.55797 Y20.99317
N1620 G1 X-27.6661 Y21.16523
N1621 G1 X-27.81754 Y21.33729
N1622 G1 X-27.93808 Y21.44023
N1623 G1 X-28.0331 Y21.50512
N1624 G1 X-28.12813 Y21.55838
N1625 G1 X-28.31819 Y21.63585
N1626 G1 X-28.50824 Y21.6802
N1627 G1 X-28.6983 Y21.69491
N1628 G1 X-28.88835 Y21.68102
N1629 G1 X-29.07841 Y21.63754
N1630 G1 X-29.11319 Y21.62229
N1631 G1 X-29.20438 Y21.56342 Z57.87191 F762
N1632 G1 X-29.29381 Y21.50569 Z57.89449
N1633 G1 X-29.37976 Y21.45021 Z57.93156
N1634 G1 X-29.44185 Y21.38315 Z57.97968
N1635 G1 X-29.49913 Y21.32131 Z58.03937
N1636 G1 X-29.55059 Y21.26574 Z58.1096
N1637 G1 X-29.59534 Y21.21741 Z58.18916
N1638 G1 X-29.62339 Y21.17299 Z58.27227
N1639 G1 X-29.64566 Y21.1377 Z58.3613
N1640 G1 X-29.66183 Y21.11209 Z58.45484
N1641 G1 X-29.67164 Y21.09656 Z58.55143
N1642 G1 X-29.67492 Y21.09135 Z58.64956
N1643 G0 Z73
N1644 G0 X32.97533 Y17.52839
N1645 G0 Z60.40425
N1646 G1 Z59.13425 F381
N1647 G1 X32.97493 Y17.53636 Z58.99206
N1648 G1 X32.97375 Y17.56019 Z58.85165
N1649 G1 X32.97179 Y17.59957 Z58.7148
N1650 G1 X32.96909 Y17.654 Z58.58322
N1651 G1 X32.96567 Y17.72281 Z58.45857
N1652 G1 X32.96158 Y17.80512 Z58.34242
N1653 G1 X32.95687 Y17.8999 Z58.23623
N1654 G1 X32.9516 Y18.00596 Z58.14133
N1655 G1 X32.94584 Y18.12197 Z58.05891
N1656 G1 X32.93965 Y18.24647 Z57.99002
N1657 G1 X32.93312 Y18.37788 Z57.93552
N1658 G1 X32.92633 Y18.51457 Z57.8961
N1659 G1 X32.91936 Y18.6548 Z57.87224
N1660 G1 X32.91231 Y18.79682 Z57.86425
N1661 G3 X30.81986 Y21.14017 CR=2.50042
N1662 G1 X30.59884 Y21.16855 Z57.86425 F1164.2
N1663 G1 X30.21873 Y21.22922
N1664 G1 X29.83862 Y21.31857
N1665 G1 X29.77243 Y21.33729
N1666 G1 X29.62809 Y21.3781
N1667 G1 X29.47862 Y21.39066
N1668 G1 X29.32884 Y21.3826
N1669 G1 X29.18106 Y21.35683
N1670 G1 X29.03713 Y21.31462
N1671 G1 X28.89847 Y21.2574
N1672 G1 X28.73797 Y21.17358
N1673 G1 X28.40917 Y20.93196
N1674 G1 X28.11848 Y20.64561
N1675 G1 X27.87196 Y20.32047
N1676 G1 X27.6747 Y19.96328
N1677 G1 X27.53081 Y19.58146
N1678 G1 X27.44326 Y19.18293
N1679 G1 X27.41387 Y18.77595
N1680 G1 X27.42721 Y18.6203 Z57.87993 F762
N1681 G1 X27.4562 Y18.46678 Z57.89561
N1682 G1 X27.50054 Y18.31698 Z57.91128
N1683 G1 X27.55978 Y18.17242 Z57.92696
N1684 G1 X27.63332 Y18.03458 Z57.94264
N1685 G1 X27.71757 Y17.90867 Z57.95784 F1164.2
N1686 G1 X27.81374 Y17.79162 Z57.97304
N1687 G1 X27.92091 Y17.68455 Z57.98824
N1688 G1 X28.03805 Y17.58849 Z58.00344
N1689 G1 X28.16404 Y17.50436 Z58.01865
N1690 G1 X28.29766 Y17.43297 Z58.03385
N1691 G1 X28.43762 Y17.37502 Z58.04905
N1692 G1 X28.58259 Y17.33104 Z58.06425
N1693 G3 X29.19007 Y17.30224 CR=1.54516
N1694 G3 X31.00014 Y19.40716 CR=2.12984
N1695 G1 Y19.40794 Z58.06425
N1696 G3 X30.95885 Y19.82532 CR=2.12985
N1697 G1 X30.91804 Y19.9936 Z58.04688
N1698 G1 X30.8637 Y20.158 Z58.0295
N1699 G1 X30.79618 Y20.31745 Z58.01213
N1700 G1 X30.71593 Y20.47089 Z57.99476
N1701 G1 X30.62349 Y20.6173 Z57.97738
N1702 G1 X30.51945 Y20.75572 Z57.96001
N1703 G1 X30.40452 Y20.88523 Z57.94264
N1704 G1 X30.29208 Y20.99374 Z57.92696 F381
N1705 G1 X30.17199 Y21.09372 Z57.91128
N1706 G1 X30.04488 Y21.18462 Z57.89561
N1707 G1 X29.91146 Y21.26595 Z57.87993
N1708 G1 X29.77243 Y21.33729 Z57.86425
N1709 G1 X29.45852 Y21.47093 F1164.2
N1710 G1 X29.07841 Y21.63754
N1711 G1 X28.88835 Y21.68102
N1712 G1 X28.6983 Y21.69491
N1713 G1 X28.50824 Y21.6802
N1714 G1 X28.31819 Y21.63585
N1715 G1 X28.12813 Y21.55838
N1716 G1 X28.0331 Y21.50512
N1717 G1 X27.93808 Y21.44023
N1718 G1 X27.81754 Y21.33729
N1719 G1 X27.6661 Y21.16523
N1720 G1 X27.55797 Y20.99317
N1721 G1 X27.54045 Y20.95832
N1722 G1 X27.46692 Y20.76884
N1723 G1 X27.42581 Y20.57935
N1724 G1 X27.41387 Y20.20038
N1725 G1 Y5.79962
N1726 G1 X27.41586 Y5.73656
N1727 G1 X27.41677 Y5.70766
N1728 G1 X27.42989 Y5.54706
N1729 G1 X27.44604 Y5.44812
N1730 G1 X27.52 Y5.1646
N1731 G1 X27.64529 Y4.89973
N1732 G1 X27.81754 Y4.66271
N1733 G3 X28.55539 Y4.6045 CR=0.662 F762
N1734 G3 X28.86585 Y5.36378 CR=0.662 F1164.2
N1735 G1 X28.71497 Y5.88838 Z57.86425
N1736 G3 X28.36962 Y6.30009 CR=0.662
N1737 G3 X27.83261 Y6.31993 CR=0.662
N1738 G3 X27.41677 Y5.70766 CR=0.662 F381
N1739 G1 X27.42581 Y5.42065 Z57.86425 F1164.2
N1740 G1 X27.46692 Y5.23116
N1741 G1 X27.54045 Y5.04168
N1742 G1 X27.55797 Y5.00683
N1743 G1 X27.6661 Y4.83477
N1744 G1 X27.81754 Y4.66271
N1745 G1 X27.93808 Y4.55977
N1746 G1 X28.0331 Y4.49488
N1747 G1 X28.12813 Y4.44162
N1748 G1 X28.31819 Y4.36415
N1749 G1 X28.50824 Y4.3198
N1750 G1 X28.6983 Y4.30509
N1751 G1 X28.88835 Y4.31898
N1752 G1 X29.07841 Y4.36246
N1753 G1 X29.11319 Y4.37771
N1754 G1 X29.20438 Y4.43658 Z57.87191 F762
N1755 G1 X29.29381 Y4.49431 Z57.89449
N1756 G1 X29.37976 Y4.54979 Z57.93156
N1757 G1 X29.44185 Y4.61685 Z57.97968
N1758 G1 X29.49913 Y4.67869 Z58.03937
N1759 G1 X29.55059 Y4.73426 Z58.1096
N1760 G1 X29.59534 Y4.78259 Z58.18916
N1761 G1 X29.62339 Y4.82701 Z58.27227
N1762 G1 X29.64566 Y4.8623 Z58.3613
N1763 G1 X29.66183 Y4.88791 Z58.45484
N1764 G1 X29.67164 Y4.90344 Z58.55143
N1765 G1 X29.67492 Y4.90865 Z58.64956
N1766 G0 Z73
N1767 G0 X-35.92065 Y9.4877
N1768 G0 Z62.69025
N1769 G1 Z61.42025 F381
N1770 G1 X-35.91478 Y9.4823 Z61.27806
N1771 G1 X-35.89722 Y9.46614 Z61.13765
N1772 G1 X-35.86821 Y9.43945 Z61.0008
N1773 G1 X-35.8281 Y9.40254 Z60.86922
N1774 G1 X-35.7774 Y9.3559 Z60.74457
N1775 G1 X-35.71676 Y9.3001 Z60.62842
N1776 G1 X-35.64692 Y9.23584 Z60.52223
N1777 G1 X-35.56877 Y9.16394 Z60.42733
N1778 G1 X-35.4833 Y9.08529 Z60.34491
N1779 G1 X-35.39157 Y9.00089 Z60.27602
N1780 G1 X-35.29474 Y8.9118 Z60.22152
N1781 G1 X-35.19403 Y8.81914 Z60.18209
N1782 G1 X-35.09071 Y8.72407 Z60.15824
N1783 G1 X-34.98606 Y8.62779 Z60.15025
N1784 G3 X-29.36628 Y4.47951 CR=32.42288
N1785 G1 X-29.07841 Y4.32484 Z60.15025 F1164.2
N1786 G1 X-29.00488 Y4.28374
N1787 G1 X-28.6983 Y4.10386
N1788 G1 X-28.63021 Y4.04364
N1789 G1 X-28.51303 Y3.95
N1790 G1 X-28.38092 Y3.87896
N1791 G1 X-28.23987 Y3.82791
N1792 G1 X-28.09366 Y3.79441
N1793 G1 X-27.94457 Y3.77793
N1794 G1 X-27.79457 Y3.77741
N1795 G1 X-27.64528 Y3.79198
N1796 G1 X-27.49805 Y3.82067
N1797 G1 X-27.354 Y3.86251
N1798 G1 X-27.21418 Y3.91683
N1799 G1 X-27.0601 Y3.99248
N1800 G1 X-26.87303 Y4.10379
N1801 G1 X-26.64848 Y4.2631
N1802 G1 X-26.3879 Y4.48144
N1803 G1 X-26.09298 Y4.77189
N1804 G1 X-25.98645 Y4.89515
N1805 G1 X-25.73393 Y5.2333
N1806 G1 X-25.53201 Y5.6039
N1807 G1 X-25.38478 Y5.99942
N1808 G1 X-25.29523 Y6.41184
N1809 G1 X-25.26518 Y6.8328
N1810 G1 X-25.27542 Y6.9626 Z60.16332 F762
N1811 G1 X-25.297 Y7.09101 Z60.17638
N1812 G1 X-25.32974 Y7.21703 Z60.18945
N1813 G1 X-25.37339 Y7.3397 Z60.20251
N1814 G1 X-25.42761 Y7.45807 Z60.21557
N1815 G1 X-25.492 Y7.57124 Z60.22864
N1816 G1 X-25.57878 Y7.69488 Z60.2438 F1164.2
N1817 G1 X-25.67767 Y7.80906 Z60.25895
N1818 G1 X-25.78765 Y7.91261 Z60.27411
N1819 G1 X-25.90757 Y8.00444 Z60.28927
N1820 G1 X-26.03621 Y8.08362 Z60.30443
N1821 G1 X-26.17222 Y8.14933 Z60.31959
N1822 G1 X-26.3142 Y8.20088 Z60.33474
N1823 G1 X-26.46069 Y8.23774 Z60.3499
N1824 G1 X-26.46411 Y8.23841 Z60.35025
N1825 G3 X-29.35017 Y6.30106 CR=2.45791
N1826 G3 X-29.39638 Y5.82558 CR=2.45791
N1827 G1 X-29.3902 Y5.65253 Z60.33288
N1828 G1 X-29.37185 Y5.48033 Z60.31551
N1829 G1 X-29.34143 Y5.30986 Z60.29813
N1830 G1 X-29.29907 Y5.14195 Z60.28076
N1831 G1 X-29.245 Y4.97744 Z60.26339
N1832 G1 X-29.17948 Y4.81715 Z60.24601
N1833 G1 X-29.10283 Y4.66187 Z60.22864
N1834 G1 X-29.00351 Y4.49369 Z60.20904 F381
N1835 G1 X-28.89115 Y4.33393 Z60.18945
N1836 G1 X-28.76645 Y4.1836 Z60.16985
N1837 G1 X-28.63021 Y4.04364 Z60.15025
N1838 G1 X-28.47323 Y3.90478 F1164.2
N1839 G1 X-28.31819 Y3.76282
N1840 G1 X-28.09228 Y3.52581
N1841 G1 X-28.00747 Y3.4334
N1842 G1 X-27.90064 Y3.32809
N1843 G1 X-27.77868 Y3.24078
N1844 G1 X-27.64804 Y3.16705
N1845 G1 X-27.50796 Y3.10423
N1846 G1 X-27.16142 Y3.02127
N1847 G1 X-26.80517 Y3.01324
N1848 G1 X-26.45525 Y3.08051
N1849 G1 X-26.12737 Y3.22005
N1850 G1 X-25.83628 Y3.42558
N1851 G1 X-25.59508 Y3.68787
N1852 G1 X-25.4146 Y3.99511
N1853 G1 X-25.30296 Y4.33351
N1854 G1 X-25.26518 Y4.68783
N1855 G3 X-25.50856 Y5.42346 CR=1.3798 F762
N1856 G3 X-25.72922 Y5.67252 CR=1.3798 F1164.2
N1857 G3 X-27.98926 Y5.5357 CR=1.60102
N1858 G3 X-28.35428 Y4.12931 CR=1.60102
N1859 G3 X-28.00747 Y3.4334 CR=1.60102 F381
N1860 G1 X-27.93808 Y3.35778 Z60.15025 F1164.2
N1861 G1 X-27.78656 Y3.14684
N1862 G1 X-27.55617 Y2.76787
N1863 G1 X-27.47185 Y2.66816
N1864 G1 X-27.36701 Y2.56844
N1865 G1 X-27.27243 Y2.49558
N1866 G1 X-27.17786 Y2.43559
N1867 G1 X-27.08851 Y2.38891
N1868 G1 X-26.94313 Y2.33083
N1869 G1 X-26.79775 Y2.29228
N1870 G1 X-26.60769 Y2.26851
N1871 G1 X-26.41764 Y2.27345
N1872 G1 X-26.22758 Y2.30744
N1873 G1 X-26.03753 Y2.37302
N1874 G1 X-26.00258 Y2.38891
N1875 G1 X-25.83 Y2.48775
N1876 G1 X-25.74371 Y2.55212
N1877 G1 X-25.65742 Y2.62917
N1878 G1 X-25.53492 Y2.76787
N1879 G1 X-25.41517 Y2.95736
N1880 G1 X-25.33293 Y3.14684
N1881 G1 X-25.29924 Y3.26393
N1882 G1 X-25.27731 Y3.38102
N1883 G1 X-25.26554 Y3.52581
N1884 G1 X-25.26518 Y20.20038
N1885 G1 X-25.28812 Y20.65853
N1886 G1 X-25.32436 Y20.93497
N1887 G1 X-25.38179 Y21.20348
N1888 G1 X-25.46236 Y21.47246
N1889 G1 X-25.56188 Y21.72799
N1890 G1 X-25.60333 Y21.81342
N1891 G1 X-25.79295 Y22.11662
N1892 G1 X-26.0427 Y22.37257
N1893 G1 X-26.34117 Y22.56956
N1894 G1 X-26.67469 Y22.69858
N1895 G1 X-27.02803 Y22.75374
N1896 G1 X-27.38501 Y22.73249
N1897 G1 X-27.72931 Y22.63583
N1898 G1 X-28.04519 Y22.46817
N1899 G1 X-28.31819 Y22.23718
N1900 G1 X-28.49945 Y22.05013 Z60.17638 F762
N1901 G1 X-28.6712 Y21.85432 Z60.20251
N1902 G1 X-28.83302 Y21.65022 Z60.22864
N1903 G1 X-28.92155 Y21.52912 Z60.24368 F1164.2
N1904 G1 X-29.00657 Y21.40554 Z60.25873
N1905 G1 X-29.08618 Y21.27602 Z60.27399
N1906 G1 X-29.15594 Y21.14093 Z60.28924
N1907 G1 X-29.21546 Y21.00104 Z60.30449
N1908 G1 X-29.26441 Y20.8571 Z60.31975
N1909 G1 X-29.30253 Y20.70993 Z60.335
N1910 G1 X-29.32959 Y20.56032 Z60.35025
N1911 G3 X-27.59564 Y18.24911 CR=2.04307
N1912 G3 X-26.22183 Y18.54064 CR=2.04307
N1913 G1 X-26.07915 Y18.63874 Z60.33288
N1914 G1 X-25.94529 Y18.74857 Z60.31551
N1915 G1 X-25.82121 Y18.86935 Z60.29813
N1916 G1 X-25.70781 Y19.00019 Z60.28076
N1917 G1 X-25.60589 Y19.14017 Z60.26339
N1918 G1 X-25.51619 Y19.28827 Z60.24601
N1919 G1 X-25.43935 Y19.44344 Z60.22864
N1920 G1 X-25.38151 Y19.5886 Z60.21296 F381
N1921 G1 X-25.33494 Y19.73776 Z60.19728
N1922 G1 X-25.2999 Y19.89003 Z60.18161
N1923 G1 X-25.2766 Y20.04454 Z60.16593
N1924 G1 X-25.26518 Y20.20038 Z60.15025
N1925 G1 X-25.26538 Y22.30366 F1164.2
N1926 G1 Y22.35524
N1927 G1 Y22.39122
N1928 G1 X-25.27311 Y22.54103
N1929 G1 X-25.30301 Y22.68802
N1930 G1 X-25.34717 Y22.83137
N1931 G1 X-25.38779 Y22.93294
N1932 G1 X-25.46074 Y23.08888
N1933 G1 X-25.55101 Y23.23548
N1934 G1 X-25.65742 Y23.37083
N1935 G3 X-26.3938 Y23.44528 CR=0.662 F762
N1936 G3 X-26.70702 Y22.64716 CR=0.662 F1164.2
N1937 G1 X-26.55327 Y22.19891 Z60.15025
N1938 G3 X-26.21202 Y21.81616 CR=0.662
N1939 G3 X-25.69981 Y21.79193 CR=0.662
N1940 G3 X-25.26546 Y22.39122 CR=0.662 F381
N1941 G1 Y22.47419 Z60.15025 F1164.2
N1942 G1 X-25.27731 Y22.61898
N1943 G1 X-25.29924 Y22.73607
N1944 G1 X-25.33293 Y22.85316
N1945 G1 X-25.41517 Y23.04264
N1946 G1 X-25.53492 Y23.23213
N1947 G1 X-25.65742 Y23.37083
N1948 G1 X-25.74371 Y23.44788
N1949 G1 X-25.83 Y23.51225
N1950 G1 X-26.00258 Y23.61109
N1951 G1 X-26.03753 Y23.62698
N1952 G1 X-26.22758 Y23.69256
N1953 G1 X-26.41764 Y23.72655
N1954 G1 X-26.60769 Y23.73149
N1955 G1 X-26.79775 Y23.70772
N1956 G1 X-26.94313 Y23.66917
N1957 G1 X-27.08851 Y23.61109
N1958 G1 X-27.17786 Y23.56441
N1959 G1 X-27.27243 Y23.50442
N1960 G1 X-27.36701 Y23.43156
N1961 G1 X-27.47185 Y23.33184
N1962 G1 X-27.49735 Y23.30168
N1963 G1 X-27.55333 Y23.20868 Z60.15791 F762
N1964 G1 X-27.60822 Y23.11748 Z60.18049
N1965 G1 X-27.66097 Y23.02983 Z60.21756
N1966 G1 X-27.68722 Y22.94229 Z60.26568
N1967 G1 X-27.71143 Y22.86155 Z60.32537
N1968 G1 X-27.73319 Y22.78901 Z60.3956
N1969 G1 X-27.75211 Y22.72591 Z60.47516
N1970 G1 X-27.75773 Y22.67369 Z60.55827
N1971 G1 X-27.76221 Y22.63219 Z60.6473
N1972 G1 X-27.76545 Y22.60208 Z60.74084
N1973 G1 X-27.76742 Y22.58382 Z60.83743
N1974 G1 X-27.76808 Y22.5777 Z60.93555
N1975 G0 Z73
N1976 G0 X35.92065 Y16.5123
N1977 G0 Z62.69025
N1978 G1 Z61.42025 F381
N1979 G1 X35.91478 Y16.51771 Z61.27806
N1980 G1 X35.89722 Y16.53386 Z61.13765
N1981 G1 X35.86821 Y16.56055 Z61.0008
N1982 G1 X35.8281 Y16.59746 Z60.86922
N1983 G1 X35.7774 Y16.6441 Z60.74457
N1984 G1 X35.71676 Y16.6999 Z60.62842
N1985 G1 X35.64692 Y16.76416 Z60.52223
N1986 G1 X35.56877 Y16.83606 Z60.42733
N1987 G1 X35.4833 Y16.91471 Z60.34491
N1988 G1 X35.39157 Y16.99911 Z60.27602
N1989 G1 X35.29474 Y17.0882 Z60.22152
N1990 G1 X35.19403 Y17.18086 Z60.1821
N1991 G1 X35.09071 Y17.27593 Z60.15824
N1992 G1 X34.98606 Y17.37221 Z60.15025
N1993 G3 X29.36628 Y21.52049 CR=32.42288
N1994 G1 X29.07841 Y21.67516 Z60.15025 F1164.2
N1995 G1 X29.00488 Y21.71626
N1996 G1 X28.6983 Y21.89614
N1997 G1 X28.63021 Y21.95636
N1998 G1 X28.51303 Y22.05
N1999 G1 X28.38092 Y22.12103
N2000 G1 X28.23987 Y22.17208
N2001 G1 X28.09366 Y22.20559
N2002 G1 X27.94457 Y22.22207
N2003 G1 X27.79457 Y22.22259
N2004 G1 X27.64528 Y22.20802
N2005 G1 X27.49805 Y22.17933
N2006 G1 X27.354 Y22.13749
N2007 G1 X27.21418 Y22.08317
N2008 G1 X27.0601 Y22.00752
N2009 G1 X26.87303 Y21.89621
N2010 G1 X26.64848 Y21.73689
N2011 G1 X26.3879 Y21.51856
N2012 G1 X26.09298 Y21.22811
N2013 G1 X25.98645 Y21.10485
N2014 G1 X25.73393 Y20.7667
N2015 G1 X25.53201 Y20.3961
N2016 G1 X25.38478 Y20.00058
N2017 G1 X25.29523 Y19.58816
N2018 G1 X25.26518 Y19.1672
N2019 G1 X25.27542 Y19.0374 Z60.16332 F762
N2020 G1 X25.297 Y18.90899 Z60.17638
N2021 G1 X25.32974 Y18.78297 Z60.18945
N2022 G1 X25.37339 Y18.6603 Z60.20251
N2023 G1 X25.42761 Y18.54193 Z60.21557
N2024 G1 X25.492 Y18.42876 Z60.22864
N2025 G1 X25.57878 Y18.30512 Z60.2438 F1164.2
N2026 G1 X25.67767 Y18.19094 Z60.25895
N2027 G1 X25.78765 Y18.0874 Z60.27411
N2028 G1 X25.90757 Y17.99556 Z60.28927
N2029 G1 X26.03621 Y17.91638 Z60.30443
N2030 G1 X26.17222 Y17.85067 Z60.31959
N2031 G1 X26.3142 Y17.79912 Z60.33474
N2032 G1 X26.46069 Y17.76226 Z60.3499
N2033 G1 X26.46411 Y17.76159 Z60.35025
N2034 G3 X29.35017 Y19.69894 CR=2.45791
N2035 G3 X29.39638 Y20.17442 CR=2.45791
N2036 G1 X29.3902 Y20.34747 Z60.33288
N2037 G1 X29.37185 Y20.51967 Z60.31551
N2038 G1 X29.34143 Y20.69014 Z60.29813
N2039 G1 X29.29907 Y20.85805 Z60.28076
N2040 G1 X29.245 Y21.02256 Z60.26339
N2041 G1 X29.17948 Y21.18285 Z60.24601
N2042 G1 X29.10283 Y21.33813 Z60.22864
N2043 G1 X29.00351 Y21.50631 Z60.20904 F381
N2044 G1 X28.89115 Y21.66607 Z60.18945
N2045 G1 X28.76645 Y21.8164 Z60.16985
N2046 G1 X28.63021 Y21.95636 Z60.15025
N2047 G1 X28.47323 Y22.09522 F1164.2
N2048 G1 X28.31819 Y22.23718
N2049 G1 X28.09228 Y22.47419
N2050 G1 X28.00747 Y22.5666
N2051 G1 X27.90064 Y22.67191
N2052 G1 X27.77868 Y22.75922
N2053 G1 X27.64804 Y22.83295
N2054 G1 X27.50796 Y22.89577
N2055 G1 X27.16142 Y22.97873
N2056 G1 X26.80517 Y22.98676
N2057 G1 X26.45525 Y22.91949
N2058 G1 X26.12737 Y22.77995
N2059 G1 X25.83628 Y22.57442
N2060 G1 X25.59508 Y22.31213
N2061 G1 X25.4146 Y22.00488
N2062 G1 X25.30296 Y21.66649
N2063 G1 X25.26518 Y21.31217
N2064 G3 X25.50856 Y20.57654 CR=1.3798 F762
N2065 G3 X25.72922 Y20.32748 CR=1.3798 F1164.2
N2066 G3 X27.98926 Y20.4643 CR=1.60102
N2067 G3 X28.35428 Y21.87069 CR=1.60102
N2068 G3 X28.00747 Y22.5666 CR=1.60102 F381
N2069 G1 X27.93808 Y22.64222 Z60.15025 F1164.2
N2070 G1 X27.78656 Y22.85316
N2071 G1 X27.55617 Y23.23213
N2072 G1 X27.47185 Y23.33184
N2073 G1 X27.36701 Y23.43156
N2074 G1 X27.27243 Y23.50442
N2075 G1 X27.17786 Y23.56441
N2076 G1 X27.08851 Y23.61109
N2077 G1 X26.94313 Y23.66917
N2078 G1 X26.79775 Y23.70772
N2079 G1 X26.60769 Y23.73149
N2080 G1 X26.41764 Y23.72655
N2081 G1 X26.22758 Y23.69256
N2082 G1 X26.03753 Y23.62698
N2083 G1 X26.00258 Y23.61109
N2084 G1 X25.83 Y23.51225
N2085 G1 X25.74371 Y23.44788
N2086 G1 X25.65742 Y23.37083
N2087 G1 X25.53492 Y23.23213
N2088 G1 X25.41517 Y23.04264
N2089 G1 X25.33293 Y22.85316
N2090 G1 X25.29924 Y22.73607
N2091 G1 X25.27731 Y22.61898
N2092 G1 X25.26554 Y22.47419
N2093 G1 X25.26518 Y5.79962
N2094 G1 X25.28812 Y5.34147
N2095 G1 X25.32436 Y5.06503
N2096 G1 X25.38179 Y4.79652
N2097 G1 X25.46236 Y4.52754
N2098 G1 X25.56188 Y4.27201
N2099 G1 X25.60333 Y4.18658
N2100 G1 X25.79295 Y3.88338
N2101 G1 X26.0427 Y3.62743
N2102 G1 X26.34117 Y3.43044
N2103 G1 X26.67469 Y3.30142
N2104 G1 X27.02803 Y3.24626
N2105 G1 X27.38501 Y3.2675
N2106 G1 X27.72931 Y3.36417
N2107 G1 X28.04519 Y3.53183
N2108 G1 X28.31819 Y3.76282
N2109 G1 X28.49945 Y3.94987 Z60.17638 F762
N2110 G1 X28.6712 Y4.14568 Z60.20251
N2111 G1 X28.83302 Y4.34978 Z60.22864
N2112 G1 X28.92155 Y4.47088 Z60.24368 F1164.2
N2113 G1 X29.00657 Y4.59446 Z60.25873
N2114 G1 X29.08618 Y4.72398 Z60.27399
N2115 G1 X29.15594 Y4.85907 Z60.28924
N2116 G1 X29.21546 Y4.99896 Z60.30449
N2117 G1 X29.26441 Y5.1429 Z60.31975
N2118 G1 X29.30253 Y5.29007 Z60.335
N2119 G1 X29.32959 Y5.43968 Z60.35025
N2120 G3 X27.59564 Y7.7509 CR=2.04307
N2121 G3 X26.22183 Y7.45936 CR=2.04307
N2122 G1 X26.07915 Y7.36126 Z60.33288
N2123 G1 X25.94529 Y7.25143 Z60.31551
N2124 G1 X25.82121 Y7.13065 Z60.29813
N2125 G1 X25.70781 Y6.99981 Z60.28076
N2126 G1 X25.60589 Y6.85983 Z60.26339
N2127 G1 X25.51619 Y6.71173 Z60.24601
N2128 G1 X25.43935 Y6.55656 Z60.22864
N2129 G1 X25.38151 Y6.4114 Z60.21296 F381
N2130 G1 X25.33494 Y6.26224 Z60.19728
N2131 G1 X25.2999 Y6.10997 Z60.18161
N2132 G1 X25.2766 Y5.95545 Z60.16593
N2133 G1 X25.26518 Y5.79962 Z60.15025
N2134 G1 X25.26538 Y3.69635 F1164.2
N2135 G1 Y3.64476
N2136 G1 Y3.60878
N2137 G1 X25.27311 Y3.45897
N2138 G1 X25.30301 Y3.31198
N2139 G1 X25.34717 Y3.16863
N2140 G1 X25.38779 Y3.06706
N2141 G1 X25.46074 Y2.91112
N2142 G1 X25.55101 Y2.76452
N2143 G1 X25.65742 Y2.62917
N2144 G3 X26.3938 Y2.55472 CR=0.662 F762
N2145 G3 X26.70702 Y3.35284 CR=0.662 F1164.2
N2146 G1 X26.55327 Y3.80109 Z60.15025
N2147 G3 X26.21202 Y4.18384 CR=0.662
N2148 G3 X25.69981 Y4.20807 CR=0.662
N2149 G3 X25.26546 Y3.60878 CR=0.662 F381
N2150 G1 Y3.52581 Z60.15025 F1164.2
N2151 G1 X25.27731 Y3.38102
N2152 G1 X25.29924 Y3.26393
N2153 G1 X25.33293 Y3.14684
N2154 G1 X25.41517 Y2.95736
N2155 G1 X25.53492 Y2.76787
N2156 G1 X25.65742 Y2.62917
N2157 G1 X25.74371 Y2.55212
N2158 G1 X25.83 Y2.48775
N2159 G1 X26.00258 Y2.38891
N2160 G1 X26.03753 Y2.37302
N2161 G1 X26.22758 Y2.30744
N2162 G1 X26.41764 Y2.27345
N2163 G1 X26.60769 Y2.26851
N2164 G1 X26.79775 Y2.29228
N2165 G1 X26.94313 Y2.33083
N2166 G1 X27.08851 Y2.38891
N2167 G1 X27.17786 Y2.43559
N2168 G1 X27.27243 Y2.49558
N2169 G1 X27.36701 Y2.56844
N2170 G1 X27.47185 Y2.66816
N2171 G1 X27.49735 Y2.69832
N2172 G1 X27.55333 Y2.79132 Z60.15791 F762
N2173 G1 X27.60822 Y2.88252 Z60.18049
N2174 G1 X27.66097 Y2.97017 Z60.21756
N2175 G1 X27.68722 Y3.05771 Z60.26568
N2176 G1 X27.71143 Y3.13845 Z60.32537
N2177 G1 X27.73319 Y3.21099 Z60.3956
N2178 G1 X27.75211 Y3.27409 Z60.47516
N2179 G1 X27.75773 Y3.32631 Z60.55827
N2180 G1 X27.76221 Y3.36781 Z60.6473
N2181 G1 X27.76545 Y3.39792 Z60.74084
N2182 G1 X27.76742 Y3.41618 Z60.83743
N2183 G1 X27.76808 Y3.4223 Z60.93555
N2184 G0 Z73
N2185 G0 X-30.62819 Y10.58231
N2186 G0 Z64.97625
N2187 G1 Z63.70625 F381
N2188 G1 X-30.626 Y10.57463 Z63.56406
N2189 G1 X-30.61948 Y10.55168 Z63.42365
N2190 G1 X-30.6087 Y10.51376 Z63.2868
N2191 G1 X-30.59379 Y10.46133 Z63.15522
N2192 G1 X-30.57495 Y10.39507 Z63.03057
N2193 G1 X-30.55242 Y10.3158 Z62.91442
N2194 G1 X-30.52646 Y10.22451 Z62.80823
N2195 G1 X-30.49742 Y10.12237 Z62.71333
N2196 G1 X-30.46566 Y10.01064 Z62.63091
N2197 G1 X-30.43157 Y9.89075 Z62.56202
N2198 G1 X-30.39559 Y9.76418 Z62.50752
N2199 G1 X-30.35817 Y9.63255 Z62.46809
N2200 G1 X-30.31977 Y9.49749 Z62.44424
N2201 G1 X-30.28089 Y9.36072 Z62.43625
N2202 G3 X-27.65812 Y2.88682 CR=32.42288
N2203 G1 X-27.55797 Y2.715 Z62.43625 F1164.2
N2204 G1 X-27.40136 Y2.38891
N2205 G1 X-27.33083 Y2.18047
N2206 G1 X-27.2757 Y2.04097
N2207 G1 X-27.19922 Y1.91193
N2208 G1 X-27.106 Y1.79442
N2209 G1 X-26.99908 Y1.68921
N2210 G1 X-26.8807 Y1.5971
N2211 G1 X-26.75342 Y1.51772
N2212 G1 X-26.61887 Y1.45141
N2213 G1 X-26.47866 Y1.39811
N2214 G1 X-26.33413 Y1.35798
N2215 G1 X-26.18673 Y1.33019
N2216 G1 X-26.03283 Y1.31474
N2217 G1 X-25.88085 Y1.31175
N2218 G1 X-25.71768 Y1.32166
N2219 G1 X-25.55607 Y1.3446
N2220 G1 X-25.39077 Y1.3818
N2221 G1 X-25.22539 Y1.43326
N2222 G1 X-25.06234 Y1.49878
N2223 G1 X-24.89897 Y1.5802
N2224 G1 X-24.70887 Y1.69485
N2225 G1 X-24.48158 Y1.85817
N2226 G1 X-24.21838 Y2.0814
N2227 G1 X-23.92097 Y2.37783
N2228 G1 X-23.59126 Y2.76399
N2229 G1 X-23.23139 Y3.26136
N2230 G1 X-22.9645 Y3.70057
N2231 G1 X-22.77865 Y4.05951
N2232 G1 X-22.64338 Y4.44039
N2233 G1 X-22.5612 Y4.83614
N2234 G1 X-22.53363 Y5.2394
N2235 G1 X-22.54483 Y5.3691 Z62.44932 F762
N2236 G1 X-22.56926 Y5.49698 Z62.46238
N2237 G1 X-22.60665 Y5.62169 Z62.47545
N2238 G1 X-22.65661 Y5.74191 Z62.48851
N2239 G1 X-22.71862 Y5.85638 Z62.50158
N2240 G1 X-22.79202 Y5.96391 Z62.51464
N2241 G1 X-22.8791 Y6.06661 Z62.52815 F1164.2
N2242 G1 X-22.97656 Y6.15951 Z62.54167
N2243 G1 X-23.08332 Y6.24158 Z62.55518
N2244 G1 X-23.19816 Y6.31188 Z62.56869
N2245 G1 X-23.3198 Y6.36962 Z62.5822
N2246 G1 X-23.44687 Y6.41416 Z62.59572
N2247 G1 X-23.57794 Y6.445 Z62.60923
N2248 G1 X-23.71154 Y6.46179 Z62.62274
N2249 G1 X-23.84617 Y6.46434 Z62.63625
N2250 G3 X-24.75989 Y6.02994 CR=1.27
N2251 G1 X-26.60279 Y3.91735 Z62.63625
N2252 G1 X-27.07139 Y3.38018 Z62.56475
N2253 G1 X-27.14874 Y3.28218 Z62.55222
N2254 G1 X-27.21609 Y3.17706 Z62.5397
N2255 G1 X-27.27279 Y3.06583 Z62.52717
N2256 G1 X-27.3183 Y2.94958 Z62.51464
N2257 G1 X-27.35336 Y2.8242 Z62.50158 F381
N2258 G1 X-27.3754 Y2.69589 Z62.48851
N2259 G1 X-27.38419 Y2.566 Z62.47545
N2260 G1 X-27.37964 Y2.43589 Z62.46238
N2261 G1 X-27.36179 Y2.30693 Z62.44932
N2262 G1 X-27.33083 Y2.18047 Z62.43625
N2263 G1 X-27.27312 Y2.00994 F1164.2
N2264 G1 X-27.17786 Y1.69291
N2265 G1 X-27.14993 Y1.63097
N2266 G1 X-27.03703 Y1.44149
N2267 G1 X-26.96166 Y1.34675
N2268 G1 X-26.86948 Y1.252
N2269 G1 X-26.79775 Y1.19038
N2270 G1 X-26.60769 Y1.06198
N2271 G1 X-26.41764 Y0.97522
N2272 G1 X-26.22758 Y0.92299
N2273 G1 X-26.03753 Y0.901
N2274 G1 X-25.65742 Y0.9
N2275 G1 X-24.13698
N2276 G1 X-23.75687 Y0.90158
N2277 G1 X-23.56681 Y0.92553
N2278 G1 X-23.37676 Y0.97992
N2279 G1 X-23.1867 Y1.06926
N2280 G1 X-22.99665 Y1.20312
N2281 G1 X-22.94073 Y1.252
N2282 G1 X-22.84854 Y1.34675
N2283 G1 X-22.77318 Y1.44149
N2284 G1 X-22.66028 Y1.63097
N2285 G1 X-22.61654 Y1.73248
N2286 G1 X-22.57271 Y1.87121
N2287 G1 X-22.54559 Y2.00994
N2288 G1 X-22.53363 Y2.38891
N2289 G1 Y22.09522
N2290 G1 X-22.54453 Y22.31298
N2291 G1 X-22.58982 Y22.65842
N2292 G1 X-22.66291 Y23.00017
N2293 G1 X-22.75996 Y23.32415
N2294 G1 X-22.78902 Y23.39876
N2295 G1 X-22.96169 Y23.75955
N2296 G1 X-23.1863 Y24.0905
N2297 G1 X-23.45783 Y24.3842
N2298 G1 X-23.77018 Y24.63404
N2299 G1 X-24.11634 Y24.83442
N2300 G1 X-24.48855 Y24.98085
N2301 G1 X-24.87845 Y25.07005
N2302 G1 X-25.27731 Y25.1
N2303 G3 X-25.87618 Y24.66508 CR=0.662 F762
N2304 G3 X-25.74934 Y23.99899 CR=0.662 F1164.2
N2305 G1 X-23.69036 Y21.67891 Z62.43625
N2306 G3 X-22.96855 Y21.49635 CR=0.662
N2307 G3 X-22.53363 Y22.09522 CR=0.662 F381
N2308 G1 Y23.61109 Z62.43625 F1164.2
N2309 G1 X-22.54559 Y23.99006
N2310 G1 X-22.57271 Y24.12879
N2311 G1 X-22.61654 Y24.26752
N2312 G1 X-22.66028 Y24.36903
N2313 G1 X-22.77318 Y24.55851
N2314 G1 X-22.84854 Y24.65325
N2315 G1 X-22.94073 Y24.748
N2316 G1 X-22.99665 Y24.79688
N2317 G1 X-23.1867 Y24.93074
N2318 G1 X-23.37676 Y25.02008
N2319 G1 X-23.56681 Y25.07447
N2320 G1 X-23.75687 Y25.09842
N2321 G1 X-24.13698 Y25.1
N2322 G1 X-25.65742
N2323 G1 X-26.03753 Y25.099
N2324 G1 X-26.22758 Y25.07701
N2325 G1 X-26.41764 Y25.02478
N2326 G1 X-26.60769 Y24.93802
N2327 G1 X-26.79775 Y24.80962
N2328 G1 X-26.86948 Y24.748
N2329 G1 X-26.96166 Y24.65325
N2330 G1 X-27.03703 Y24.55851
N2331 G1 X-27.14993 Y24.36903
N2332 G1 X-27.1782 Y24.26423 Z62.44391 F762
N2333 G1 X-27.20592 Y24.16146 Z62.46649
N2334 G1 X-27.23256 Y24.06269 Z62.50356
N2335 G1 X-27.23887 Y23.97167 Z62.55142
N2336 G1 X-27.24468 Y23.88768 Z62.61082
N2337 G1 X-27.23627 Y23.81476 Z62.67846
N2338 G1 X-27.22891 Y23.75095 Z62.75486
N2339 G1 X-27.22272 Y23.69727 Z62.83879
N2340 G1 X-27.21779 Y23.6546 Z62.92889
N2341 G1 X-27.21422 Y23.62362 Z63.0237
N2342 G1 X-27.21205 Y23.60483 Z63.12171
N2343 G1 X-27.21133 Y23.59853 Z63.22132
N2344 G0 Z73
N2345 G0 X30.62819 Y15.41769
N2346 G0 Z64.97625
N2347 G1 Z63.70625 F381
N2348 G1 X30.626 Y15.42537 Z63.56406
N2349 G1 X30.61948 Y15.44832 Z63.42365
N2350 G1 X30.6087 Y15.48624 Z63.2868
N2351 G1 X30.59379 Y15.53867 Z63.15522
N2352 G1 X30.57495 Y15.60493 Z63.03057
N2353 G1 X30.55242 Y15.6842 Z62.91442
N2354 G1 X30.52646 Y15.77549 Z62.80823
N2355 G1 X30.49742 Y15.87763 Z62.71333
N2356 G1 X30.46566 Y15.98936 Z62.63091
N2357 G1 X30.43157 Y16.10925 Z62.56202
N2358 G1 X30.39559 Y16.23582 Z62.50752
N2359 G1 X30.35817 Y16.36745 Z62.46809
N2360 G1 X30.31977 Y16.50251 Z62.44424
N2361 G1 X30.28089 Y16.63928 Z62.43625
N2362 G3 X27.65812 Y23.11318 CR=32.42288
N2363 G1 X27.55797 Y23.285 Z62.43625 F1164.2
N2364 G1 X27.40136 Y23.61109
N2365 G1 X27.33083 Y23.81952
N2366 G1 X27.2757 Y23.95903
N2367 G1 X27.19922 Y24.08807
N2368 G1 X27.106 Y24.20558
N2369 G1 X26.99908 Y24.31079
N2370 G1 X26.8807 Y24.4029
N2371 G1 X26.75342 Y24.48228
N2372 G1 X26.61887 Y24.54859
N2373 G1 X26.47866 Y24.60189
N2374 G1 X26.33413 Y24.64202
N2375 G1 X26.18673 Y24.66981
N2376 G1 X26.03283 Y24.68526
N2377 G1 X25.88085 Y24.68825
N2378 G1 X25.71768 Y24.67834
N2379 G1 X25.55607 Y24.6554
N2380 G1 X25.39077 Y24.6182
N2381 G1 X25.22539 Y24.56674
N2382 G1 X25.06234 Y24.50122
N2383 G1 X24.89897 Y24.4198
N2384 G1 X24.70887 Y24.30515
N2385 G1 X24.48158 Y24.14183
N2386 G1 X24.21838 Y23.9186
N2387 G1 X23.92097 Y23.62217
N2388 G1 X23.59126 Y23.23601
N2389 G1 X23.23139 Y22.73864
N2390 G1 X22.9645 Y22.29943
N2391 G1 X22.77865 Y21.94049
N2392 G1 X22.64338 Y21.55961
N2393 G1 X22.5612 Y21.16385
N2394 G1 X22.53363 Y20.7606
N2395 G1 X22.54483 Y20.6309 Z62.44932 F762
N2396 G1 X22.56926 Y20.50302 Z62.46238
N2397 G1 X22.60665 Y20.37831 Z62.47545
N2398 G1 X22.65661 Y20.25809 Z62.48851
N2399 G1 X22.71862 Y20.14362 Z62.50158
N2400 G1 X22.79202 Y20.03609 Z62.51464
N2401 G1 X22.8791 Y19.93339 Z62.52815 F1164.2
N2402 G1 X22.97656 Y19.84049 Z62.54167
N2403 G1 X23.08332 Y19.75842 Z62.55518
N2404 G1 X23.19816 Y19.68812 Z62.56869
N2405 G1 X23.3198 Y19.63038 Z62.5822
N2406 G1 X23.44687 Y19.58584 Z62.59572
N2407 G1 X23.57794 Y19.555 Z62.60923
N2408 G1 X23.71154 Y19.53821 Z62.62274
N2409 G1 X23.84617 Y19.53566 Z62.63625
N2410 G3 X24.75989 Y19.97006 CR=1.27
N2411 G1 X26.60279 Y22.08265 Z62.63625
N2412 G1 X27.07139 Y22.61982 Z62.56475
N2413 G1 X27.14874 Y22.71782 Z62.55222
N2414 G1 X27.21609 Y22.82294 Z62.5397
N2415 G1 X27.27279 Y22.93417 Z62.52717
N2416 G1 X27.3183 Y23.05042 Z62.51464
N2417 G1 X27.35336 Y23.1758 Z62.50158 F381
N2418 G1 X27.3754 Y23.30411 Z62.48851
N2419 G1 X27.38419 Y23.434 Z62.47545
N2420 G1 X27.37964 Y23.56411 Z62.46238
N2421 G1 X27.36179 Y23.69307 Z62.44932
N2422 G1 X27.33083 Y23.81952 Z62.43625
N2423 G1 X27.27312 Y23.99006 F1164.2
N2424 G1 X27.17786 Y24.30709
N2425 G1 X27.14993 Y24.36903
N2426 G1 X27.03703 Y24.55851
N2427 G1 X26.96166 Y24.65325
N2428 G1 X26.86948 Y24.748
N2429 G1 X26.79775 Y24.80962
N2430 G1 X26.60769 Y24.93802
N2431 G1 X26.41764 Y25.02478
N2432 G1 X26.22758 Y25.07701
N2433 G1 X26.03753 Y25.099
N2434 G1 X25.65742 Y25.1
N2435 G1 X24.13698
N2436 G1 X23.75687 Y25.09842
N2437 G1 X23.56681 Y25.07447
N2438 G1 X23.37676 Y25.02008
N2439 G1 X23.1867 Y24.93074
N2440 G1 X22.99665 Y24.79688
N2441 G1 X22.94073 Y24.748
N2442 G1 X22.84854 Y24.65325
N2443 G1 X22.77318 Y24.55851
N2444 G1 X22.66028 Y24.36903
N2445 G1 X22.61654 Y24.26752
N2446 G1 X22.57271 Y24.12879
N2447 G1 X22.54559 Y23.99006
N2448 G1 X22.53363 Y23.61109
N2449 G1 Y3.90478
N2450 G1 X22.54453 Y3.68702
N2451 G1 X22.58982 Y3.34158
N2452 G1 X22.66291 Y2.99983
N2453 G1 X22.75996 Y2.67585
N2454 G1 X22.78902 Y2.60124
N2455 G1 X22.96169 Y2.24045
N2456 G1 X23.1863 Y1.9095
N2457 G1 X23.45783 Y1.6158
N2458 G1 X23.77018 Y1.36596
N2459 G1 X24.11634 Y1.16558
N2460 G1 X24.48855 Y1.01915
N2461 G1 X24.87845 Y0.92996
N2462 G1 X25.27731 Y0.9
N2463 G3 X25.87618 Y1.33492 CR=0.662 F762
N2464 G3 X25.74934 Y2.00101 CR=0.662 F1164.2
N2465 G1 X23.69036 Y4.32109 Z62.43625
N2466 G3 X22.96855 Y4.50365 CR=0.662
N2467 G3 X22.53363 Y3.90478 CR=0.662 F381
N2468 G1 Y2.38891 Z62.43625 F1164.2
N2469 G1 X22.54559 Y2.00994
N2470 G1 X22.57271 Y1.87121
N2471 G1 X22.61654 Y1.73248
N2472 G1 X22.66028 Y1.63097
N2473 G1 X22.77318 Y1.44149
N2474 G1 X22.84854 Y1.34675
N2475 G1 X22.94073 Y1.252
N2476 G1 X22.99665 Y1.20312
N2477 G1 X23.1867 Y1.06926
N2478 G1 X23.37676 Y0.97992
N2479 G1 X23.56681 Y0.92553
N2480 G1 X23.75687 Y0.90158
N2481 G1 X24.13698 Y0.9
N2482 G1 X25.65742
N2483 G1 X26.03753 Y0.901
N2484 G1 X26.22758 Y0.92299
N2485 G1 X26.41764 Y0.97522
N2486 G1 X26.60769 Y1.06198
N2487 G1 X26.79775 Y1.19038
N2488 G1 X26.86948 Y1.252
N2489 G1 X26.96166 Y1.34675
N2490 G1 X27.03703 Y1.44149
N2491 G1 X27.14993 Y1.63097
N2492 G1 X27.1782 Y1.73577 Z62.44391 F762
N2493 G1 X27.20592 Y1.83854 Z62.46649
N2494 G1 X27.23256 Y1.93731 Z62.50356
N2495 G1 X27.23887 Y2.02833 Z62.55142
N2496 G1 X27.24468 Y2.11232 Z62.61082
N2497 G1 X27.23627 Y2.18524 Z62.67846
N2498 G1 X27.22891 Y2.24905 Z62.75486
N2499 G1 X27.22272 Y2.30273 Z62.83879
N2500 G1 X27.21779 Y2.3454 Z62.92889
N2501 G1 X27.21422 Y2.37638 Z63.0237
N2502 G1 X27.21205 Y2.39517 Z63.12171
N2503 G1 X27.21133 Y2.40147 Z63.22132
N2504 G0 Z73
N2505 G0 X-24.60834 Y4.74586
N2506 G0 Z67.26225
N2507 G1 Z65.99226 F381
N2508 G1 X-24.61336 Y4.73965 Z65.85006
N2509 G1 X-24.62835 Y4.72109 Z65.70965
N2510 G1 X-24.65313 Y4.69043 Z65.5728
N2511 G1 X-24.68738 Y4.64804 Z65.44122
N2512 G1 X-24.73068 Y4.59445 Z65.31657
N2513 G1 X-24.78248 Y4.53035 Z65.20042
N2514 G1 X-24.84212 Y4.45653 Z65.09423
N2515 G1 X-24.90886 Y4.37393 Z64.99933
N2516 G1 X-24.98186 Y4.28359 Z64.91691
N2517 G1 X-25.0602 Y4.18663 Z64.84802
N2518 G1 X-25.1429 Y4.08429 Z64.79352
N2519 G1 X-25.22891 Y3.97784 Z64.75409
N2520 G1 X-25.31715 Y3.86863 Z64.73024
N2521 G1 X-25.40652 Y3.75803 Z64.72225
N2522 G3 X-25.14435 Y1.28901 CR=1.75568
N2523 G3 X-24.10219 Y0.9 CR=1.75568
N2524 G1 X-22.78759 Z64.72225 F1164.2
N2525 G1 X-22.63778 Y0.9075
N2526 G1 X-22.49092 Y0.93806
N2527 G1 X-22.34935 Y0.98765
N2528 G1 X-22.20758 Y1.05488
N2529 G1 X-22.02695 Y1.15908
N2530 G1 X-21.80861 Y1.30959
N2531 G1 X-21.55399 Y1.51713
N2532 G1 X-21.26472 Y1.79441
N2533 G1 X-20.94267 Y2.15702
N2534 G1 X-20.58992 Y2.62503
N2535 G1 X-20.20874 Y3.2256
N2536 G1 X-19.80159 Y3.99784
N2537 G1 X-19.3711 Y5.00242
N2538 G1 X-19.03541 Y6.0003
N2539 G1 X-18.94983 Y6.30904
N2540 G1 X-18.89807 Y6.62522
N2541 G1 X-18.88075 Y6.94514
N2542 G1 X-18.89134 Y7.04216 Z64.73205 F762
N2543 G1 X-18.91607 Y7.13657 Z64.74185
N2544 G1 X-18.95442 Y7.22632 Z64.75165
N2545 G1 X-19.00554 Y7.30945 Z64.76144
N2546 G1 X-19.06834 Y7.38416 Z64.77124
N2547 G1 X-19.14143 Y7.44883 Z64.78104
N2548 G1 X-19.22324 Y7.50205 Z64.79084
N2549 G1 X-19.31199 Y7.54266 Z64.80064
N2550 G1 X-19.40984 Y7.57064 Z64.81086 F1164.2
N2551 G1 X-19.51082 Y7.58329 Z64.82107
N2552 G1 X-19.61255 Y7.5803 Z64.83129
N2553 G1 X-19.71262 Y7.56176 Z64.84151
N2554 G1 X-19.80867 Y7.5281 Z64.85173
N2555 G1 X-19.89842 Y7.48012 Z64.86195
N2556 G1 X-19.97975 Y7.41895 Z64.87217
N2557 G1 X-20.05075 Y7.34603 Z64.88239
N2558 G1 X-20.10973 Y7.26309 Z64.89261
N2559 G1 X-20.262 Y7.00977 Z64.92225
N2560 G1 X-23.01305 Y2.43305
N2561 G1 X-23.33187 Y1.90265 Z64.86018
N2562 G1 X-23.37632 Y1.81437 Z64.85025
N2563 G1 X-23.40714 Y1.72046 Z64.84033
N2564 G1 X-23.42363 Y1.62301 Z64.83041
N2565 G1 X-23.42543 Y1.52419 Z64.82048
N2566 G1 X-23.41249 Y1.42621 Z64.81056
N2567 G1 X-23.38511 Y1.33124 Z64.80064
N2568 G1 X-23.3445 Y1.24249 Z64.79084 F381
N2569 G1 X-23.29128 Y1.16068 Z64.78104
N2570 G1 X-23.22661 Y1.08759 Z64.77124
N2571 G1 X-23.1519 Y1.0248 Z64.76144
N2572 G1 X-23.06876 Y0.97367 Z64.75165
N2573 G1 X-22.97902 Y0.93532 Z64.74185
N2574 G1 X-22.88461 Y0.91059 Z64.73205
N2575 G1 X-22.78759 Y0.9 Z64.72225
N2576 G1 X-21.0961 F1164.2
N2577 G1 X-20.82057 Y0.91379
N2578 G1 X-20.42935 Y1.00144
N2579 G1 X-20.06015 Y1.15773
N2580 G1 X-19.72491 Y1.37761
N2581 G1 X-19.43446 Y1.65397
N2582 G1 X-19.1982 Y1.97788
N2583 G1 X-19.02376 Y2.33886
N2584 G1 X-18.91679 Y2.72525
N2585 G1 X-18.88075 Y3.12454
N2586 G1 X-18.89189 Y3.28041 Z64.73793 F762
N2587 G1 X-18.91437 Y3.43504 Z64.75361
N2588 G1 X-18.94805 Y3.58763 Z64.76928
N2589 G1 X-18.99276 Y3.73736 Z64.78496
N2590 G1 X-19.04827 Y3.88343 Z64.80064
N2591 G1 X-19.12202 Y4.04009 Z64.81801 F1164.2
N2592 G1 X-19.20819 Y4.19028 Z64.83538
N2593 G1 X-19.3062 Y4.33303 Z64.85276
N2594 G1 X-19.41542 Y4.4674 Z64.87013
N2595 G1 X-19.53513 Y4.59251 Z64.8875
N2596 G1 X-19.66455 Y4.70754 Z64.90488
N2597 G1 X-19.80283 Y4.81176 Z64.92225
N2598 G3 X-21.56725 Y5.12209 CR=2.1428
N2599 G3 X-23.09756 Y2.49962 CR=2.147
N2600 G3 X-22.78439 Y1.82068 CR=2.147
N2601 G1 X-22.67994 Y1.68258 Z64.90488
N2602 G1 X-22.5647 Y1.55334 Z64.8875
N2603 G1 X-22.43942 Y1.43381 Z64.87013
N2604 G1 X-22.30491 Y1.32476 Z64.85276
N2605 G1 X-22.16206 Y1.22691 Z64.83538
N2606 G1 X-22.01178 Y1.14088 Z64.81801
N2607 G1 X-21.85506 Y1.06725 Z64.80064
N2608 G1 X-21.70895 Y1.01184 Z64.78496 F381
N2609 G1 X-21.5592 Y0.9672 Z64.76928
N2610 G1 X-21.4066 Y0.93357 Z64.75361
N2611 G1 X-21.25196 Y0.91113 Z64.73793
N2612 G1 X-21.0961 Y0.9 Z64.72225
N2613 G1 X-20.33588 F1164.2
N2614 G1 X-19.95577 Y0.9172
N2615 G1 X-19.76571 Y0.9641
N2616 G1 X-19.57566 Y1.04455
N2617 G1 X-19.43108 Y1.1329
N2618 G1 X-19.2865 Y1.252
N2619 G1 X-19.19555 Y1.34687
N2620 G1 X-19.08773 Y1.48892
N2621 G1 X-19.0074 Y1.63097
N2622 G1 X-18.93384 Y1.82046
N2623 G1 X-18.89271 Y2.00994
N2624 G1 X-18.88075 Y2.38891
N2625 G1 Y22.09522
N2626 G1 X-18.9223 Y22.92529
N2627 G1 X-19.00576 Y23.31612
N2628 G1 X-19.15044 Y23.68865
N2629 G1 X-19.35264 Y24.03336
N2630 G1 X-19.60719 Y24.34144
N2631 G1 X-19.90758 Y24.60502
N2632 G1 X-20.24614 Y24.81736
N2633 G1 X-20.61421 Y24.97303
N2634 G1 X-21.00239 Y25.06805
N2635 G1 X-21.40074 Y25.1
N2636 G1 X-21.53045 Y25.08879 Z64.73532 F762
N2637 G1 X-21.65833 Y25.06437 Z64.74838
N2638 G1 X-21.78303 Y25.02698 Z64.76144
N2639 G1 X-21.90325 Y24.97702 Z64.77451
N2640 G1 X-22.01773 Y24.91501 Z64.78757
N2641 G1 X-22.12525 Y24.84161 Z64.80064
N2642 G1 X-22.22796 Y24.75453 Z64.81415 F1164.2
N2643 G1 X-22.32086 Y24.65707 Z64.82766
N2644 G1 X-22.40292 Y24.55031 Z64.84117
N2645 G1 X-22.47322 Y24.43547 Z64.85469
N2646 G1 X-22.53097 Y24.31383 Z64.8682
N2647 G1 X-22.57551 Y24.18676 Z64.88171
N2648 G1 X-22.60635 Y24.05569 Z64.89522
N2649 G1 X-22.62313 Y23.92209 Z64.90874
N2650 G1 X-22.62568 Y23.78746 Z64.92225
N2651 G3 X-22.39032 Y23.09324 CR=1.27
N2652 G1 X-21.18387 Y21.40201 Z64.92225
N2653 G3 X-20.19329 Y20.87028 CR=1.27
N2654 G1 X-20.05866 Y20.87283 Z64.90874
N2655 G1 X-19.92506 Y20.88962 Z64.89522
N2656 G1 X-19.79399 Y20.92046 Z64.88171
N2657 G1 X-19.66692 Y20.965 Z64.8682
N2658 G1 X-19.54528 Y21.02274 Z64.85469
N2659 G1 X-19.43044 Y21.09304 Z64.84117
N2660 G1 X-19.32368 Y21.17511 Z64.82766
N2661 G1 X-19.22622 Y21.26801 Z64.81415
N2662 G1 X-19.13914 Y21.37071 Z64.80064
N2663 G1 X-19.06574 Y21.47824 Z64.78757 F381
N2664 G1 X-19.00373 Y21.59271 Z64.77451
N2665 G1 X-18.95377 Y21.71293 Z64.76144
N2666 G1 X-18.91638 Y21.83764 Z64.74838
N2667 G1 X-18.89196 Y21.96552 Z64.73532
N2668 G1 X-18.88075 Y22.09522 Z64.72225
N2669 G1 Y23.61109 F1164.2
N2670 G1 X-18.89271 Y23.99006
N2671 G1 X-18.93384 Y24.17954
N2672 G1 X-19.0074 Y24.36903
N2673 G1 X-19.08773 Y24.51108
N2674 G1 X-19.19555 Y24.65313
N2675 G1 X-19.2865 Y24.748
N2676 G1 X-19.43108 Y24.8671
N2677 G1 X-19.57566 Y24.95545
N2678 G1 X-19.76571 Y25.0359
N2679 G1 X-19.95577 Y25.0828
N2680 G1 X-20.33588 Y25.1
N2681 G1 X-23.37676
N2682 G1 X-23.48391 Y25.08269 Z64.72991 F762
N2683 G1 X-23.58899 Y25.06572 Z64.75249
N2684 G1 X-23.68999 Y25.0494 Z64.78957
N2685 G1 X-23.77378 Y25.01292 Z64.83768
N2686 G1 X-23.85107 Y24.97927 Z64.89737
N2687 G1 X-23.9205 Y24.94904 Z64.96761
N2688 G1 X-23.9809 Y24.92274 Z65.04716
N2689 G1 X-24.02441 Y24.89332 Z65.13028
N2690 G1 X-24.05898 Y24.86994 Z65.2193
N2691 G1 X-24.08407 Y24.85297 Z65.31284
N2692 G1 X-24.09929 Y24.84268 Z65.40943
N2693 G1 X-24.10439 Y24.83924 Z65.50755
N2694 G0 Z73
N2695 G0 X24.60834 Y21.25414
N2696 G0 Z67.26225
N2697 G1 Z65.99226 F381
N2698 G1 X24.61336 Y21.26035 Z65.85006
N2699 G1 X24.62835 Y21.27891 Z65.70965
N2700 G1 X24.65313 Y21.30957 Z65.5728
N2701 G1 X24.68739 Y21.35196 Z65.44122
N2702 G1 X24.73068 Y21.40555 Z65.31657
N2703 G1 X24.78248 Y21.46965 Z65.20042
N2704 G1 X24.84212 Y21.54347 Z65.09423
N2705 G1 X24.90886 Y21.62607 Z64.99933
N2706 G1 X24.98186 Y21.71641 Z64.91691
N2707 G1 X25.0602 Y21.81337 Z64.84802
N2708 G1 X25.1429 Y21.91571 Z64.79352
N2709 G1 X25.22891 Y22.02216 Z64.75409
N2710 G1 X25.31715 Y22.13137 Z64.73024
N2711 G1 X25.40652 Y22.24197 Z64.72225
N2712 G3 X25.14434 Y24.71099 CR=1.75568
N2713 G3 X24.10219 Y25.1 CR=1.75568
N2714 G1 X22.78759 Z64.72225 F1164.2
N2715 G1 X22.63778 Y25.0925
N2716 G1 X22.49092 Y25.06194
N2717 G1 X22.34935 Y25.01235
N2718 G1 X22.20758 Y24.94512
N2719 G1 X22.02695 Y24.84092
N2720 G1 X21.80861 Y24.69041
N2721 G1 X21.55399 Y24.48287
N2722 G1 X21.26472 Y24.2056
N2723 G1 X20.94267 Y23.84298
N2724 G1 X20.58992 Y23.37497
N2725 G1 X20.20874 Y22.7744
N2726 G1 X19.80159 Y22.00216
N2727 G1 X19.3711 Y20.99758
N2728 G1 X19.03541 Y19.9997
N2729 G1 X18.94983 Y19.69096
N2730 G1 X18.89807 Y19.37478
N2731 G1 X18.88075 Y19.05486
N2732 G1 X18.89134 Y18.95784 Z64.73205 F762
N2733 G1 X18.91607 Y18.86343 Z64.74185
N2734 G1 X18.95442 Y18.77368 Z64.75165
N2735 G1 X19.00554 Y18.69055 Z64.76144
N2736 G1 X19.06834 Y18.61584 Z64.77124
N2737 G1 X19.14143 Y18.55117 Z64.78104
N2738 G1 X19.22324 Y18.49795 Z64.79084
N2739 G1 X19.31199 Y18.45734 Z64.80064
N2740 G1 X19.40984 Y18.42936 Z64.81086 F1164.2
N2741 G1 X19.51082 Y18.41671 Z64.82107
N2742 G1 X19.61255 Y18.4197 Z64.83129
N2743 G1 X19.71262 Y18.43824 Z64.84151
N2744 G1 X19.80867 Y18.4719 Z64.85173
N2745 G1 X19.89842 Y18.51988 Z64.86195
N2746 G1 X19.97975 Y18.58105 Z64.87217
N2747 G1 X20.05075 Y18.65397 Z64.88239
N2748 G1 X20.10973 Y18.73691 Z64.89261
N2749 G1 X20.262 Y18.99023 Z64.92225
N2750 G1 X23.01305 Y23.56695
N2751 G1 X23.33187 Y24.09735 Z64.86018
N2752 G1 X23.37632 Y24.18563 Z64.85025
N2753 G1 X23.40714 Y24.27954 Z64.84033
N2754 G1 X23.42363 Y24.37699 Z64.83041
N2755 G1 X23.42543 Y24.47581 Z64.82048
N2756 G1 X23.41249 Y24.5738 Z64.81056
N2757 G1 X23.38511 Y24.66876 Z64.80064
N2758 G1 X23.3445 Y24.75751 Z64.79084 F381
N2759 G1 X23.29128 Y24.83932 Z64.78104
N2760 G1 X23.22661 Y24.91241 Z64.77124
N2761 G1 X23.1519 Y24.97521 Z64.76144
N2762 G1 X23.06876 Y25.02633 Z64.75165
N2763 G1 X22.97902 Y25.06468 Z64.74185
N2764 G1 X22.88461 Y25.08941 Z64.73205
N2765 G1 X22.78759 Y25.1 Z64.72225
N2766 G1 X21.0961 F1164.2
N2767 G1 X20.82057 Y25.08621
N2768 G1 X20.42935 Y24.99856
N2769 G1 X20.06015 Y24.84227
N2770 G1 X19.72491 Y24.62239
N2771 G1 X19.43446 Y24.34603
N2772 G1 X19.1982 Y24.02212
N2773 G1 X19.02376 Y23.66114
N2774 G1 X18.91679 Y23.27475
N2775 G1 X18.88075 Y22.87546
N2776 G1 X18.89189 Y22.71959 Z64.73793 F762
N2777 G1 X18.91437 Y22.56496 Z64.75361
N2778 G1 X18.94805 Y22.41237 Z64.76928
N2779 G1 X18.99276 Y22.26264 Z64.78496
N2780 G1 X19.04827 Y22.11657 Z64.80064
N2781 G1 X19.12202 Y21.95991 Z64.81801 F1164.2
N2782 G1 X19.20819 Y21.80972 Z64.83538
N2783 G1 X19.3062 Y21.66697 Z64.85276
N2784 G1 X19.41542 Y21.5326 Z64.87013
N2785 G1 X19.53513 Y21.40749 Z64.8875
N2786 G1 X19.66455 Y21.29245 Z64.90488
N2787 G1 X19.80283 Y21.18824 Z64.92225
N2788 G3 X21.56725 Y20.87791 CR=2.1428
N2789 G3 X23.09756 Y23.50038 CR=2.147
N2790 G3 X22.78439 Y24.17932 CR=2.147
N2791 G1 X22.67994 Y24.31742 Z64.90488
N2792 G1 X22.5647 Y24.44666 Z64.8875
N2793 G1 X22.43942 Y24.56619 Z64.87013
N2794 G1 X22.30491 Y24.67524 Z64.85276
N2795 G1 X22.16206 Y24.77309 Z64.83538
N2796 G1 X22.01178 Y24.85912 Z64.81801
N2797 G1 X21.85506 Y24.93275 Z64.80064
N2798 G1 X21.70895 Y24.98816 Z64.78496 F381
N2799 G1 X21.5592 Y25.0328 Z64.76928
N2800 G1 X21.4066 Y25.06643 Z64.75361
N2801 G1 X21.25196 Y25.08887 Z64.73793
N2802 G1 X21.0961 Y25.1 Z64.72225
N2803 G1 X20.33588 F1164.2
N2804 G1 X19.95577 Y25.0828
N2805 G1 X19.76571 Y25.0359
N2806 G1 X19.57566 Y24.95545
N2807 G1 X19.43108 Y24.8671
N2808 G1 X19.2865 Y24.748
N2809 G1 X19.19555 Y24.65313
N2810 G1 X19.08773 Y24.51108
N2811 G1 X19.0074 Y24.36903
N2812 G1 X18.93384 Y24.17954
N2813 G1 X18.89271 Y23.99006
N2814 G1 X18.88075 Y23.61109
N2815 G1 Y3.90478
N2816 G1 X18.9223 Y3.07471
N2817 G1 X19.00576 Y2.68388
N2818 G1 X19.15044 Y2.31135
N2819 G1 X19.35264 Y1.96664
N2820 G1 X19.60719 Y1.65856
N2821 G1 X19.90758 Y1.39498
N2822 G1 X20.24614 Y1.18264
N2823 G1 X20.61421 Y1.02697
N2824 G1 X21.00239 Y0.93195
N2825 G1 X21.40074 Y0.9
N2826 G1 X21.53045 Y0.91121 Z64.73532 F762
N2827 G1 X21.65833 Y0.93563 Z64.74838
N2828 G1 X21.78303 Y0.97302 Z64.76144
N2829 G1 X21.90325 Y1.02298 Z64.77451
N2830 G1 X22.01773 Y1.08499 Z64.78757
N2831 G1 X22.12525 Y1.15839 Z64.80064
N2832 G1 X22.22796 Y1.24547 Z64.81415 F1164.2
N2833 G1 X22.32086 Y1.34293 Z64.82766
N2834 G1 X22.40292 Y1.44969 Z64.84117
N2835 G1 X22.47322 Y1.56453 Z64.85469
N2836 G1 X22.53097 Y1.68617 Z64.8682
N2837 G1 X22.57551 Y1.81324 Z64.88171
N2838 G1 X22.60635 Y1.94431 Z64.89522
N2839 G1 X22.62313 Y2.07791 Z64.90874
N2840 G1 X22.62568 Y2.21254 Z64.92225
N2841 G3 X22.39032 Y2.90676 CR=1.27
N2842 G1 X21.18387 Y4.59799 Z64.92225
N2843 G3 X20.19329 Y5.12972 CR=1.27
N2844 G1 X20.05866 Y5.12717 Z64.90874
N2845 G1 X19.92506 Y5.11038 Z64.89522
N2846 G1 X19.79399 Y5.07954 Z64.88171
N2847 G1 X19.66692 Y5.035 Z64.8682
N2848 G1 X19.54528 Y4.97725 Z64.85469
N2849 G1 X19.43044 Y4.90696 Z64.84117
N2850 G1 X19.32368 Y4.82489 Z64.82766
N2851 G1 X19.22622 Y4.73199 Z64.81415
N2852 G1 X19.13914 Y4.62929 Z64.80064
N2853 G1 X19.06574 Y4.52176 Z64.78757 F381
N2854 G1 X19.00373 Y4.40729 Z64.77451
N2855 G1 X18.95377 Y4.28706 Z64.76144
N2856 G1 X18.91638 Y4.16236 Z64.74838
N2857 G1 X18.89196 Y4.03448 Z64.73532
N2858 G1 X18.88075 Y3.90478 Z64.72225
N2859 G1 Y2.38891 F1164.2
N2860 G1 X18.89271 Y2.00994
N2861 G1 X18.93384 Y1.82046
N2862 G1 X19.0074 Y1.63097
N2863 G1 X19.08773 Y1.48892
N2864 G1 X19.19555 Y1.34687
N2865 G1 X19.2865 Y1.252
N2866 G1 X19.43108 Y1.1329
N2867 G1 X19.57566 Y1.04455
N2868 G1 X19.76571 Y0.9641
N2869 G1 X19.95577 Y0.9172
N2870 G1 X20.33588 Y0.9
N2871 G1 X23.37676
N2872 G1 X23.48391 Y0.91731 Z64.72991 F762
N2873 G1 X23.58899 Y0.93428 Z64.75249
N2874 G1 X23.68999 Y0.9506 Z64.78957
N2875 G1 X23.77378 Y0.98708 Z64.83768
N2876 G1 X23.85107 Y1.02073 Z64.89737
N2877 G1 X23.9205 Y1.05096 Z64.96761
N2878 G1 X23.9809 Y1.07726 Z65.04716
N2879 G1 X24.02441 Y1.10668 Z65.13028
N2880 G1 X24.05898 Y1.13006 Z65.2193
N2881 G1 X24.08407 Y1.14703 Z65.31284
N2882 G1 X24.09929 Y1.15732 Z65.40943
N2883 G1 X24.10439 Y1.16077 Z65.50755
N2884 G0 Z73
N2885 G0 X-13.95543 Y10.73496
N2886 G0 Z69.54826
N2887 G1 Z68.27825 F381
N2888 G1 X-13.95345 Y10.7427 Z68.13606
N2889 G1 X-13.94753 Y10.76581 Z67.99565
N2890 G1 X-13.93774 Y10.804 Z67.8588
N2891 G1 X-13.92422 Y10.8568 Z67.72722
N2892 G1 X-13.90712 Y10.92354 Z67.60257
N2893 G1 X-13.88667 Y11.00337 Z67.48642
N2894 G1 X-13.86313 Y11.0953 Z67.38023
N2895 G1 X-13.83678 Y11.19818 Z67.28533
N2896 G1 X-13.80795 Y11.3107 Z67.20291
N2897 G1 X-13.77702 Y11.43145 Z67.13402
N2898 G1 X-13.74437 Y11.55891 Z67.07952
N2899 G1 X-13.71041 Y11.69148 Z67.0401
N2900 G1 X-13.67557 Y11.8275 Z67.01624
N2901 G1 X-13.64029 Y11.96524 Z67.00826
N2902 G3 X-12.64599 Y18.87911 CR=32.42288
N2903 G1 Y20.95832 Z67.00826 F1164.2
N2904 G1 X-12.65349 Y21.10813
N2905 G1 X-13.06534 Y22.33279
N2906 G1 X-13.50275 Y23.42215
N2907 G1 X-13.5206 Y23.45798
N2908 G1 X-13.76219 Y23.85977
N2909 G1 X-14.06412 Y24.21844
N2910 G1 X-14.41884 Y24.52499
N2911 G1 X-14.81746 Y24.77176
N2912 G1 X-15.25002 Y24.95258
N2913 G1 X-15.70568 Y25.06291
N2914 G1 X-16.17305 Y25.1
N2915 G1 X-16.30275 Y25.08879 Z67.02132 F762
N2916 G1 X-16.43063 Y25.06437 Z67.03438
N2917 G1 X-16.55533 Y25.02698 Z67.04745
N2918 G1 X-16.67555 Y24.97702 Z67.06051
N2919 G1 X-16.79003 Y24.91501 Z67.07358
N2920 G1 X-16.89755 Y24.84161 Z67.08664
N2921 G1 X-17.00026 Y24.75453 Z67.10015 F1164.2
N2922 G1 X-17.09316 Y24.65707 Z67.11366
N2923 G1 X-17.17522 Y24.55031 Z67.12718
N2924 G1 X-17.24552 Y24.43547 Z67.14069
N2925 G1 X-17.30327 Y24.31383 Z67.1542
N2926 G1 X-17.34781 Y24.18676 Z67.16771
N2927 G1 X-17.37865 Y24.05569 Z67.18123
N2928 G1 X-17.39544 Y23.92209 Z67.19474
N2929 G1 X-17.39799 Y23.78746 Z67.20825
N2930 G3 X-17.12882 Y23.04802 CR=1.27
N2931 G1 X-14.91532 Y20.21989 Z67.20825
N2932 G3 X-13.95853 Y19.73338 CR=1.27
N2933 G1 X-13.8239 Y19.73593 Z67.19474
N2934 G1 X-13.6903 Y19.75272 Z67.18123
N2935 G1 X-13.55923 Y19.78356 Z67.16771
N2936 G1 X-13.43216 Y19.8281 Z67.1542
N2937 G1 X-13.31052 Y19.88584 Z67.14069
N2938 G1 X-13.19568 Y19.95614 Z67.12718
N2939 G1 X-13.08892 Y20.0382 Z67.11366
N2940 G1 X-12.99146 Y20.13111 Z67.10015
N2941 G1 X-12.90438 Y20.23381 Z67.08664
N2942 G1 X-12.83098 Y20.34134 Z67.07358 F381
N2943 G1 X-12.76897 Y20.45581 Z67.06051
N2944 G1 X-12.71901 Y20.57603 Z67.04745
N2945 G1 X-12.68162 Y20.70074 Z67.03438
N2946 G1 X-12.6572 Y20.82861 Z67.02132
N2947 G1 X-12.64599 Y20.95832 Z67.00826
N2948 G1 Y23.61109 F1164.2
N2949 G1 X-12.65795 Y23.99006
N2950 G1 X-12.68666 Y24.13498
N2951 G1 X-12.73368 Y24.2799
N2952 G1 X-12.77264 Y24.36903
N2953 G1 X-12.88554 Y24.55851
N2954 G1 X-12.9609 Y24.65325
N2955 G1 X-13.05309 Y24.748
N2956 G1 X-13.11379 Y24.80162
N2957 G1 X-13.20882 Y24.87425
N2958 G1 X-13.30385 Y24.93399
N2959 G1 X-13.4939 Y25.02218
N2960 G1 X-13.68396 Y25.07562
N2961 G1 X-13.87401 Y25.09869
N2962 G1 X-14.25412 Y25.1
N2963 G1 X-19.95577
N2964 G1 X-20.06292 Y25.08269 Z67.01591 F762
N2965 G1 X-20.168 Y25.06572 Z67.03849
N2966 G1 X-20.269 Y25.0494 Z67.07556
N2967 G1 X-20.35279 Y25.01292 Z67.12368
N2968 G1 X-20.43008 Y24.97927 Z67.18337
N2969 G1 X-20.49952 Y24.94904 Z67.2536
N2970 G1 X-20.55991 Y24.92274 Z67.33316
N2971 G1 X-20.60342 Y24.89332 Z67.41627
N2972 G1 X-20.638 Y24.86994 Z67.5053
N2973 G1 X-20.66309 Y24.85297 Z67.59884
N2974 G1 X-20.6783 Y24.84268 Z67.69543
N2975 G1 X-20.6834 Y24.83924 Z67.79356
N2976 G0 Z73
N2977 G0 X22.9339 Y21.79224
N2978 G0 Z69.54826
N2979 G1 Z68.27825 F381
N2980 G1 X22.93249 Y21.8001 Z68.13606
N2981 G1 X22.92828 Y21.82358 Z67.99565
N2982 G1 X22.92132 Y21.86239 Z67.8588
N2983 G1 X22.91171 Y21.91603 Z67.72722
N2984 G1 X22.89955 Y21.98384 Z67.60257
N2985 G1 X22.88501 Y22.06496 Z67.48642
N2986 G1 X22.86826 Y22.15838 Z67.38023
N2987 G1 X22.84952 Y22.2629 Z67.28533
N2988 G1 X22.82903 Y22.37723 Z67.20291
N2989 G1 X22.80703 Y22.49992 Z67.13402
